( This gcode generated by C:/Program Files/EAGLE-4.13/ulp/pcb-gcode.ulp )
( Copyright 2005 by John Johnson. See readme.txt for licensing terms. )

( This file generated from the board C:/Program Files/EAGLE-4.13/projects/Kline converter/kline to db9.brd )
( This file generated  2/18/2010 10:42:44p )

( T01 0.036000 )
( T02 0.040000 )
( T03 0.125984 )
G20

G90
M05
G00 X5.5000 Y3.4000 Z7.6000 
M06 T01  ; 0.0360 
G00 Z0.0200 
M03
G04 P3.000000
G00 Z0.020000
G00 X1.0700 Y0.0550 
G01 Z-0.1200 F5.00  
G01 Z0.020000
(R0.0200  P10.000000)
(G00 Z0.020000)
G00 X1.0700 Y0.6550 
G01 Z-0.120000
G01 Z0.020000
M05
G00 X5.5000 Y3.4000 Z7.6000 
M06 T02  ; 0.0400 
G00 Z0.0200 
M03
G04 P3.000000
G00 Z0.020000
G00 X0.3200 Y0.1950 
G01 Z-0.1200 F5.00  
G01 Z0.020000
(R0.0200  P10.000000)
(G00 Z0.020000)
G00 X0.4200 Y0.1950 
G01 Z-0.120000
G01 Z0.020000
(G00 Z0.020000)
G00 X0.5200 Y0.1950 
G01 Z-0.120000
G01 Z0.020000
(G00 Z0.020000)
G00 X1.0950 Y1.0350 
G01 Z-0.120000
G01 Z0.020000
(G00 Z0.020000)
G00 X1.1950 Y1.0350 
G01 Z-0.120000
G01 Z0.020000
(G00 Z0.020000)
G00 X1.2400 Y0.2150 
G01 Z-0.120000
G01 Z0.020000
(G00 Z0.020000)
G00 X1.2400 Y0.3150 
G01 Z-0.120000
G01 Z0.020000
(G00 Z0.020000)
G00 X1.2400 Y0.4150 
G01 Z-0.120000
G01 Z0.020000
(G00 Z0.020000)
G00 X1.2950 Y1.0350 
G01 Z-0.120000
G01 Z0.020000
(G00 Z0.020000)
G00 X1.3950 Y1.0350 
G01 Z-0.120000
G01 Z0.020000
M05
G00 X5.5000 Y3.4000 Z7.6000 
M06 T03  ; 0.1260 
G00 Z0.0200 
M03
G04 P3.000000
G00 Z0.020000
G00 X0.1800 Y1.3200 
G01 Z-0.1200 F5.00  
G01 Z0.020000
(R0.0200  P10.000000)
(G00 Z0.020000)
G00 X1.1900 Y1.3200 
G01 Z-0.120000
G01 Z0.020000
(File Footer)
T01 
G00 Z0.5000 
M05
M02
