( This gcode generated by C:/Program Files/EAGLE-4.13/ulp/pcb-gcode.ulp )
( Copyright 2005 by John Johnson. See readme.txt for licensing terms. )

( This file generated from the board C:/Program Files/EAGLE-4.13/projects/Kline converter/kline to db9.brd )
( This file generated  2/18/2010 10:42:44p )

G20

G90
G00 Z0.5000 
G00 X0 Y0
M03
G04 P3.000000
G00 Z0.0200 
G00 X-0.3345 Y0.2601 
G01 Z-0.0100 F10.00 
G01 X-0.3055 Y0.2601 
G01 X-0.2849 Y0.2395 
G01 X-0.2849 Y0.1505 
G01 X-0.3055 Y0.1299 
G01 X-0.3345 Y0.1299 
G01 X-0.3551 Y0.1505 
G01 X-0.3551 Y0.2395 
G01 X-0.3345 Y0.2601 
G00 Z0.0200 
G00 X-0.4345 Y0.2601 
G01 Z-0.0100 F10.00 
G01 X-0.4055 Y0.2601 
G01 X-0.3849 Y0.2395 
G01 X-0.3849 Y0.1505 
G01 X-0.4055 Y0.1299 
G01 X-0.4345 Y0.1299 
G01 X-0.4551 Y0.1505 
G01 X-0.4551 Y0.2395 
G01 X-0.4345 Y0.2601 
G00 Z0.0200 
G00 X-0.5345 Y0.2601 
G01 Z-0.0100 F10.00 
G01 X-0.5055 Y0.2601 
G01 X-0.4849 Y0.2395 
G01 X-0.4849 Y0.1505 
G01 X-0.5055 Y0.1299 
G01 X-0.5345 Y0.1299 
G01 X-0.5551 Y0.1505 
G01 X-0.5551 Y0.2395 
G01 X-0.5345 Y0.2601 
G00 Z0.0200 
G00 X-1.3805 Y0.9699 
G01 Z-0.0100 F10.00 
G01 X-1.4095 Y0.9699 
G01 X-1.4301 Y0.9905 
G01 X-1.4301 Y1.0795 
G01 X-1.4095 Y1.1001 
G01 X-1.3805 Y1.1001 
G01 X-1.3599 Y1.0795 
G01 X-1.3599 Y0.9905 
G01 X-1.3805 Y0.9699 
G00 Z0.0200 
G00 X-1.2805 Y0.9699 
G01 Z-0.0100 F10.00 
G01 X-1.3095 Y0.9699 
G01 X-1.3301 Y0.9905 
G01 X-1.3301 Y1.0795 
G01 X-1.3095 Y1.1001 
G01 X-1.2805 Y1.1001 
G01 X-1.2599 Y1.0795 
G01 X-1.2599 Y0.9905 
G01 X-1.2805 Y0.9699 
G00 Z0.0200 
G00 X-1.1805 Y0.9699 
G01 Z-0.0100 F10.00 
G01 X-1.2095 Y0.9699 
G01 X-1.2301 Y0.9905 
G01 X-1.2301 Y1.0795 
G01 X-1.2095 Y1.1001 
G01 X-1.1805 Y1.1001 
G01 X-1.1599 Y1.0795 
G01 X-1.1599 Y0.9905 
G01 X-1.1805 Y0.9699 
G00 Z0.0200 
G00 X-1.0805 Y0.9699 
G01 Z-0.0100 F10.00 
G01 X-1.1095 Y0.9699 
G01 X-1.1301 Y0.9905 
G01 X-1.1301 Y1.0795 
G01 X-1.1095 Y1.1001 
G01 X-1.0805 Y1.1001 
G01 X-1.0599 Y1.0795 
G01 X-1.0599 Y0.9905 
G01 X-1.0805 Y0.9699 
G00 Z0.0200 
G00 X-1.1749 Y0.2295 
G01 Z-0.0100 F10.00 
G01 X-1.1749 Y0.2005 
G01 X-1.1955 Y0.1799 
G01 X-1.2845 Y0.1799 
G01 X-1.3051 Y0.2005 
G01 X-1.3051 Y0.2295 
G01 X-1.2845 Y0.2501 
G01 X-1.1955 Y0.2501 
G01 X-1.1749 Y0.2295 
G00 Z0.0200 
G00 X-1.1749 Y0.3295 
G01 Z-0.0100 F10.00 
G01 X-1.1749 Y0.3005 
G01 X-1.1955 Y0.2799 
G01 X-1.2845 Y0.2799 
G01 X-1.3051 Y0.3005 
G01 X-1.3051 Y0.3295 
G01 X-1.2845 Y0.3501 
G01 X-1.1955 Y0.3501 
G01 X-1.1749 Y0.3295 
G00 Z0.0200 
G00 X-1.1749 Y0.4295 
G01 Z-0.0100 F10.00 
G01 X-1.1749 Y0.4005 
G01 X-1.1955 Y0.3799 
G01 X-1.2845 Y0.3799 
G01 X-1.3051 Y0.4005 
G01 X-1.3051 Y0.4295 
G01 X-1.2845 Y0.4501 
G01 X-1.1955 Y0.4501 
G01 X-1.1749 Y0.4295 
G00 Z0.0200 
G00 X-1.1031 Y0.6413 
G01 Z-0.0100 F10.00 
G01 X-1.1031 Y0.6687 
G01 X-1.0837 Y0.6881 
G01 X-1.0563 Y0.6881 
G01 X-1.0369 Y0.6687 
G01 X-1.0369 Y0.6413 
G01 X-1.0563 Y0.6219 
G01 X-1.0837 Y0.6219 
G01 X-1.1031 Y0.6413 
G00 Z0.0200 
G00 X-1.1031 Y0.0413 
G01 Z-0.0100 F10.00 
G01 X-1.1031 Y0.0687 
G01 X-1.0837 Y0.0881 
G01 X-1.0563 Y0.0881 
G01 X-1.0369 Y0.0687 
G01 X-1.0369 Y0.0413 
G01 X-1.0563 Y0.0219 
G01 X-1.0837 Y0.0219 
G01 X-1.1031 Y0.0413 
G00 Z0.0200 
G00 X-0.3366 Y0.2651 
G01 Z-0.0100 F10.00 
G01 X-0.3034 Y0.2651 
G01 X-0.2799 Y0.2416 
G01 X-0.2799 Y0.1484 
G01 X-0.3034 Y0.1249 
G01 X-0.3366 Y0.1249 
G01 X-0.3601 Y0.1484 
G01 X-0.3601 Y0.2416 
G01 X-0.3366 Y0.2651 
G00 Z0.0200 
G00 X-0.4366 Y0.2651 
G01 Z-0.0100 F10.00 
G01 X-0.4034 Y0.2651 
G01 X-0.3799 Y0.2416 
G01 X-0.3799 Y0.1484 
G01 X-0.4034 Y0.1249 
G01 X-0.4366 Y0.1249 
G01 X-0.4601 Y0.1484 
G01 X-0.4601 Y0.2416 
G01 X-0.4366 Y0.2651 
G00 Z0.0200 
G00 X-0.5366 Y0.2651 
G01 Z-0.0100 F10.00 
G01 X-0.5034 Y0.2651 
G01 X-0.4799 Y0.2416 
G01 X-0.4799 Y0.1484 
G01 X-0.5034 Y0.1249 
G01 X-0.5366 Y0.1249 
G01 X-0.5601 Y0.1484 
G01 X-0.5601 Y0.2416 
G01 X-0.5366 Y0.2651 
G00 Z0.0200 
G00 X-1.3784 Y0.9649 
G01 Z-0.0100 F10.00 
G01 X-1.4116 Y0.9649 
G01 X-1.4351 Y0.9884 
G01 X-1.4351 Y1.0816 
G01 X-1.4116 Y1.1051 
G01 X-1.3784 Y1.1051 
G01 X-1.3549 Y1.0816 
G01 X-1.3549 Y0.9884 
G01 X-1.3784 Y0.9649 
G00 Z0.0200 
G00 X-1.2784 Y0.9649 
G01 Z-0.0100 F10.00 
G01 X-1.3116 Y0.9649 
G01 X-1.3351 Y0.9884 
G01 X-1.3351 Y1.0816 
G01 X-1.3116 Y1.1051 
G01 X-1.2784 Y1.1051 
G01 X-1.2549 Y1.0816 
G01 X-1.2549 Y0.9884 
G01 X-1.2784 Y0.9649 
G00 Z0.0200 
G00 X-1.1784 Y0.9649 
G01 Z-0.0100 F10.00 
G01 X-1.2116 Y0.9649 
G01 X-1.2351 Y0.9884 
G01 X-1.2351 Y1.0816 
G01 X-1.2116 Y1.1051 
G01 X-1.1784 Y1.1051 
G01 X-1.1549 Y1.0816 
G01 X-1.1549 Y0.9884 
G01 X-1.1784 Y0.9649 
G00 Z0.0200 
G00 X-1.0784 Y0.9649 
G01 Z-0.0100 F10.00 
G01 X-1.1116 Y0.9649 
G01 X-1.1351 Y0.9884 
G01 X-1.1351 Y1.0816 
G01 X-1.1116 Y1.1051 
G01 X-1.0784 Y1.1051 
G01 X-1.0549 Y1.0816 
G01 X-1.0549 Y0.9884 
G01 X-1.0784 Y0.9649 
G00 Z0.0200 
G00 X-1.1699 Y0.2316 
G01 Z-0.0100 F10.00 
G01 X-1.1699 Y0.1984 
G01 X-1.1934 Y0.1749 
G01 X-1.2866 Y0.1749 
G01 X-1.3101 Y0.1984 
G01 X-1.3101 Y0.2316 
G01 X-1.2866 Y0.2551 
G01 X-1.1934 Y0.2551 
G01 X-1.1699 Y0.2316 
G00 Z0.0200 
G00 X-1.1699 Y0.3316 
G01 Z-0.0100 F10.00 
G01 X-1.1699 Y0.2984 
G01 X-1.1934 Y0.2749 
G01 X-1.2866 Y0.2749 
G01 X-1.3101 Y0.2984 
G01 X-1.3101 Y0.3316 
G01 X-1.2866 Y0.3551 
G01 X-1.1934 Y0.3551 
G01 X-1.1699 Y0.3316 
G00 Z0.0200 
G00 X-1.1699 Y0.4316 
G01 Z-0.0100 F10.00 
G01 X-1.1699 Y0.3984 
G01 X-1.1934 Y0.3749 
G01 X-1.2866 Y0.3749 
G01 X-1.3101 Y0.3984 
G01 X-1.3101 Y0.4316 
G01 X-1.2866 Y0.4551 
G01 X-1.1934 Y0.4551 
G01 X-1.1699 Y0.4316 
G00 Z0.0200 
G00 X-1.1081 Y0.6392 
G01 Z-0.0100 F10.00 
G01 X-1.1081 Y0.6708 
G01 X-1.0858 Y0.6931 
G01 X-1.0542 Y0.6931 
G01 X-1.0319 Y0.6708 
G01 X-1.0319 Y0.6392 
G01 X-1.0542 Y0.6169 
G01 X-1.0858 Y0.6169 
G01 X-1.1081 Y0.6392 
G00 Z0.0200 
G00 X-1.1081 Y0.0392 
G01 Z-0.0100 F10.00 
G01 X-1.1081 Y0.0708 
G01 X-1.0858 Y0.0931 
G01 X-1.0542 Y0.0931 
G01 X-1.0319 Y0.0708 
G01 X-1.0319 Y0.0392 
G01 X-1.0542 Y0.0169 
G01 X-1.0858 Y0.0169 
G01 X-1.1081 Y0.0392 
G00 Z0.0200 
G00 X-0.3387 Y0.2701 
G01 Z-0.0100 F10.00 
G01 X-0.3013 Y0.2701 
G01 X-0.2749 Y0.2437 
G01 X-0.2749 Y0.1463 
G01 X-0.3013 Y0.1199 
G01 X-0.3387 Y0.1199 
G01 X-0.3651 Y0.1463 
G01 X-0.3651 Y0.2437 
G01 X-0.3387 Y0.2701 
G00 Z0.0200 
G00 X-0.4387 Y0.2701 
G01 Z-0.0100 F10.00 
G01 X-0.4013 Y0.2701 
G01 X-0.3749 Y0.2437 
G01 X-0.3749 Y0.1463 
G01 X-0.4013 Y0.1199 
G01 X-0.4387 Y0.1199 
G01 X-0.4651 Y0.1463 
G01 X-0.4651 Y0.2437 
G01 X-0.4387 Y0.2701 
G00 Z0.0200 
G00 X-0.5387 Y0.2701 
G01 Z-0.0100 F10.00 
G01 X-0.5013 Y0.2701 
G01 X-0.4749 Y0.2437 
G01 X-0.4749 Y0.1463 
G01 X-0.5013 Y0.1199 
G01 X-0.5387 Y0.1199 
G01 X-0.5651 Y0.1463 
G01 X-0.5651 Y0.2437 
G01 X-0.5387 Y0.2701 
G00 Z0.0200 
G00 X-1.3763 Y0.9599 
G01 Z-0.0100 F10.00 
G01 X-1.4137 Y0.9599 
G01 X-1.4401 Y0.9863 
G01 X-1.4401 Y1.0837 
G01 X-1.4137 Y1.1101 
G01 X-1.3763 Y1.1101 
G01 X-1.3499 Y1.0837 
G01 X-1.3499 Y0.9863 
G01 X-1.3763 Y0.9599 
G00 Z0.0200 
G00 X-1.2763 Y0.9599 
G01 Z-0.0100 F10.00 
G01 X-1.3137 Y0.9599 
G01 X-1.3401 Y0.9863 
G01 X-1.3401 Y1.0837 
G01 X-1.3137 Y1.1101 
G01 X-1.2763 Y1.1101 
G01 X-1.2499 Y1.0837 
G01 X-1.2499 Y0.9863 
G01 X-1.2763 Y0.9599 
G00 Z0.0200 
G00 X-1.1763 Y0.9599 
G01 Z-0.0100 F10.00 
G01 X-1.2137 Y0.9599 
G01 X-1.2401 Y0.9863 
G01 X-1.2401 Y1.0837 
G01 X-1.2137 Y1.1101 
G01 X-1.1763 Y1.1101 
G01 X-1.1499 Y1.0837 
G01 X-1.1499 Y0.9863 
G01 X-1.1763 Y0.9599 
G00 Z0.0200 
G00 X-1.0763 Y0.9599 
G01 Z-0.0100 F10.00 
G01 X-1.1137 Y0.9599 
G01 X-1.1401 Y0.9863 
G01 X-1.1401 Y1.0837 
G01 X-1.1137 Y1.1101 
G01 X-1.0763 Y1.1101 
G01 X-1.0499 Y1.0837 
G01 X-1.0499 Y0.9863 
G01 X-1.0763 Y0.9599 
G00 Z0.0200 
G00 X-1.1649 Y0.2337 
G01 Z-0.0100 F10.00 
G01 X-1.1649 Y0.1963 
G01 X-1.1913 Y0.1699 
G01 X-1.2887 Y0.1699 
G01 X-1.3151 Y0.1963 
G01 X-1.3151 Y0.2337 
G01 X-1.2887 Y0.2601 
G01 X-1.1913 Y0.2601 
G01 X-1.1649 Y0.2337 
G00 Z0.0200 
G00 X-1.1649 Y0.3337 
G01 Z-0.0100 F10.00 
G01 X-1.1649 Y0.2963 
G01 X-1.1913 Y0.2699 
G01 X-1.2887 Y0.2699 
G01 X-1.3151 Y0.2963 
G01 X-1.3151 Y0.3337 
G01 X-1.2887 Y0.3601 
G01 X-1.1913 Y0.3601 
G01 X-1.1649 Y0.3337 
G00 Z0.0200 
G00 X-1.1649 Y0.4337 
G01 Z-0.0100 F10.00 
G01 X-1.1649 Y0.3963 
G01 X-1.1913 Y0.3699 
G01 X-1.2887 Y0.3699 
G01 X-1.3151 Y0.3963 
G01 X-1.3151 Y0.4337 
G01 X-1.2887 Y0.4601 
G01 X-1.1913 Y0.4601 
G01 X-1.1649 Y0.4337 
G00 Z0.0200 
G00 X-1.1131 Y0.6371 
G01 Z-0.0100 F10.00 
G01 X-1.1131 Y0.6728 
G01 X-1.0878 Y0.6981 
G01 X-1.0521 Y0.6981 
G01 X-1.0269 Y0.6728 
G01 X-1.0269 Y0.6371 
G01 X-1.0521 Y0.6119 
G01 X-1.0878 Y0.6119 
G01 X-1.1131 Y0.6371 
G00 Z0.0200 
G00 X-1.1131 Y0.0371 
G01 Z-0.0100 F10.00 
G01 X-1.1131 Y0.0728 
G01 X-1.0878 Y0.0981 
G01 X-1.0521 Y0.0981 
G01 X-1.0269 Y0.0728 
G01 X-1.0269 Y0.0371 
G01 X-1.0521 Y0.0119 
G01 X-1.0878 Y0.0119 
G01 X-1.1131 Y0.0371 
G00 Z0.0200 
G00 X-1.3742 Y0.9549 
G01 Z-0.0100 F10.00 
G01 X-1.4157 Y0.9549 
G01 X-1.4451 Y0.9842 
G01 X-1.4451 Y1.0857 
G01 X-1.4157 Y1.1151 
G01 X-1.3742 Y1.1151 
G01 X-1.3450 Y1.0858 
G01 X-1.3157 Y1.1151 
G01 X-1.2742 Y1.1151 
G01 X-1.2450 Y1.0858 
G01 X-1.2157 Y1.1151 
G01 X-1.1742 Y1.1151 
G01 X-1.1450 Y1.0858 
G01 X-1.1157 Y1.1151 
G01 X-1.0742 Y1.1151 
G01 X-1.0449 Y1.0857 
G01 X-1.0449 Y0.9842 
G01 X-1.0742 Y0.9549 
G01 X-1.1157 Y0.9549 
G01 X-1.1450 Y0.9842 
G01 X-1.1742 Y0.9549 
G01 X-1.2157 Y0.9549 
G01 X-1.2450 Y0.9842 
G01 X-1.2742 Y0.9549 
G01 X-1.3157 Y0.9549 
G01 X-1.3450 Y0.9842 
G01 X-1.3742 Y0.9549 
G00 Z0.0200 
G00 X-0.3407 Y0.2751 
G01 Z-0.0100 F10.00 
G01 X-0.2992 Y0.2751 
G01 X-0.2699 Y0.2457 
G01 X-0.2699 Y0.1442 
G01 X-0.2992 Y0.1149 
G01 X-0.3407 Y0.1149 
G01 X-0.3700 Y0.1442 
G01 X-0.3992 Y0.1149 
G01 X-0.4407 Y0.1149 
G01 X-0.4700 Y0.1442 
G01 X-0.4992 Y0.1149 
G01 X-0.5407 Y0.1149 
G01 X-0.5701 Y0.1442 
G01 X-0.5701 Y0.2457 
G01 X-0.5407 Y0.2751 
G01 X-0.4992 Y0.2751 
G01 X-0.4700 Y0.2458 
G01 X-0.4407 Y0.2751 
G01 X-0.3992 Y0.2751 
G01 X-0.3700 Y0.2458 
G01 X-0.3407 Y0.2751 
G00 Z0.0200 
G00 X-1.1599 Y0.2357 
G01 Z-0.0100 F10.00 
G01 X-1.1599 Y0.1942 
G01 X-1.1892 Y0.1649 
G01 X-1.2907 Y0.1649 
G01 X-1.3201 Y0.1942 
G01 X-1.3201 Y0.2357 
G01 X-1.2908 Y0.2650 
G01 X-1.3201 Y0.2942 
G01 X-1.3201 Y0.3357 
G01 X-1.2908 Y0.3650 
G01 X-1.3201 Y0.3942 
G01 X-1.3201 Y0.4357 
G01 X-1.2907 Y0.4651 
G01 X-1.1892 Y0.4651 
G01 X-1.1599 Y0.4357 
G01 X-1.1599 Y0.3942 
G01 X-1.1892 Y0.3650 
G01 X-1.1599 Y0.3357 
G01 X-1.1599 Y0.2942 
G01 X-1.1892 Y0.2650 
G01 X-1.1599 Y0.2357 
G00 Z0.0200 
G00 X-1.1181 Y0.6351 
G01 Z-0.0100 F10.00 
G01 X-1.1181 Y0.6749 
G01 X-1.0899 Y0.7031 
G01 X-1.0501 Y0.7031 
G01 X-1.0219 Y0.6749 
G01 X-1.0219 Y0.6351 
G01 X-1.0501 Y0.6069 
G01 X-1.0899 Y0.6069 
G01 X-1.1181 Y0.6351 
G00 Z0.0200 
G00 X-1.1181 Y0.0351 
G01 Z-0.0100 F10.00 
G01 X-1.1181 Y0.0749 
G01 X-1.0899 Y0.1031 
G01 X-1.0501 Y0.1031 
G01 X-1.0219 Y0.0749 
G01 X-1.0219 Y0.0351 
G01 X-1.0501 Y0.0069 
G01 X-1.0899 Y0.0069 
G01 X-1.1181 Y0.0351 
G00 Z0.0200 
G00 X-1.3722 Y0.9499 
G01 Z-0.0100 F10.00 
G01 X-1.4178 Y0.9499 
G01 X-1.4501 Y0.9822 
G01 X-1.4501 Y1.0878 
G01 X-1.4178 Y1.1201 
G01 X-1.3722 Y1.1201 
G01 X-1.3450 Y1.0929 
G01 X-1.3178 Y1.1201 
G01 X-1.2722 Y1.1201 
G01 X-1.2450 Y1.0929 
G01 X-1.2178 Y1.1201 
G01 X-1.1722 Y1.1201 
G01 X-1.1450 Y1.0929 
G01 X-1.1178 Y1.1201 
G01 X-1.0722 Y1.1201 
G01 X-1.0399 Y1.0878 
G01 X-1.0399 Y0.9822 
G01 X-1.0722 Y0.9499 
G01 X-1.1178 Y0.9499 
G01 X-1.1450 Y0.9771 
G01 X-1.1722 Y0.9499 
G01 X-1.2178 Y0.9499 
G01 X-1.2450 Y0.9771 
G01 X-1.2722 Y0.9499 
G01 X-1.3178 Y0.9499 
G01 X-1.3450 Y0.9771 
G01 X-1.3722 Y0.9499 
G00 Z0.0200 
G00 X-0.3428 Y0.2801 
G01 Z-0.0100 F10.00 
G01 X-0.2972 Y0.2801 
G01 X-0.2649 Y0.2478 
G01 X-0.2649 Y0.1422 
G01 X-0.2972 Y0.1099 
G01 X-0.3428 Y0.1099 
G01 X-0.3700 Y0.1371 
G01 X-0.3972 Y0.1099 
G01 X-0.4428 Y0.1099 
G01 X-0.4700 Y0.1371 
G01 X-0.4972 Y0.1099 
G01 X-0.5428 Y0.1099 
G01 X-0.5751 Y0.1422 
G01 X-0.5751 Y0.2478 
G01 X-0.5428 Y0.2801 
G01 X-0.4972 Y0.2801 
G01 X-0.4700 Y0.2529 
G01 X-0.4428 Y0.2801 
G01 X-0.3972 Y0.2801 
G01 X-0.3700 Y0.2529 
G01 X-0.3428 Y0.2801 
G00 Z0.0200 
G00 X-1.1549 Y0.2378 
G01 Z-0.0100 F10.00 
G01 X-1.1549 Y0.1922 
G01 X-1.1872 Y0.1599 
G01 X-1.2928 Y0.1599 
G01 X-1.3251 Y0.1922 
G01 X-1.3251 Y0.2378 
G01 X-1.2979 Y0.2650 
G01 X-1.3251 Y0.2922 
G01 X-1.3251 Y0.3378 
G01 X-1.2979 Y0.3650 
G01 X-1.3251 Y0.3922 
G01 X-1.3251 Y0.4378 
G01 X-1.2928 Y0.4701 
G01 X-1.1872 Y0.4701 
G01 X-1.1549 Y0.4378 
G01 X-1.1549 Y0.3922 
G01 X-1.1821 Y0.3650 
G01 X-1.1549 Y0.3378 
G01 X-1.1549 Y0.2922 
G01 X-1.1821 Y0.2650 
G01 X-1.1549 Y0.2378 
G00 Z0.0200 
G00 X-1.1231 Y0.6330 
G01 Z-0.0100 F10.00 
G01 X-1.1231 Y0.6770 
G01 X-1.0920 Y0.7081 
G01 X-1.0480 Y0.7081 
G01 X-1.0169 Y0.6770 
G01 X-1.0169 Y0.6330 
G01 X-1.0480 Y0.6019 
G01 X-1.0920 Y0.6019 
G01 X-1.1231 Y0.6330 
G00 Z0.0200 
G00 X-1.1231 Y0.0330 
G01 Z-0.0100 F10.00 
G01 X-1.1231 Y0.0770 
G01 X-1.0920 Y0.1081 
G01 X-1.0480 Y0.1081 
G01 X-1.0169 Y0.0770 
G01 X-1.0169 Y0.0330 
G01 X-1.0480 Y0.0019 
G01 X-1.0920 Y0.0019 
G01 X-1.1231 Y0.0330 
G00 Z0.0200 
G00 X-1.3701 Y0.9449 
G01 Z-0.0100 F10.00 
G01 X-1.4199 Y0.9449 
G01 X-1.4551 Y0.9801 
G01 X-1.4551 Y1.0899 
G01 X-1.4199 Y1.1251 
G01 X-1.3701 Y1.1251 
G01 X-1.3450 Y1.1000 
G01 X-1.3199 Y1.1251 
G01 X-1.2701 Y1.1251 
G01 X-1.2450 Y1.1000 
G01 X-1.2199 Y1.1251 
G01 X-1.1701 Y1.1251 
G01 X-1.1450 Y1.1000 
G01 X-1.1199 Y1.1251 
G01 X-1.0701 Y1.1251 
G01 X-1.0349 Y1.0899 
G01 X-1.0349 Y0.9801 
G01 X-1.0701 Y0.9449 
G01 X-1.1199 Y0.9449 
G01 X-1.1450 Y0.9700 
G01 X-1.1701 Y0.9449 
G01 X-1.2199 Y0.9449 
G01 X-1.2450 Y0.9700 
G01 X-1.2701 Y0.9449 
G01 X-1.3199 Y0.9449 
G01 X-1.3450 Y0.9700 
G01 X-1.3701 Y0.9449 
G00 Z0.0200 
G00 X-0.3449 Y0.2851 
G01 Z-0.0100 F10.00 
G01 X-0.2951 Y0.2851 
G01 X-0.2599 Y0.2499 
G01 X-0.2599 Y0.1401 
G01 X-0.2951 Y0.1049 
G01 X-0.3449 Y0.1049 
G01 X-0.3700 Y0.1300 
G01 X-0.3951 Y0.1049 
G01 X-0.4449 Y0.1049 
G01 X-0.4700 Y0.1300 
G01 X-0.4951 Y0.1049 
G01 X-0.5449 Y0.1049 
G01 X-0.5801 Y0.1401 
G01 X-0.5801 Y0.2499 
G01 X-0.5449 Y0.2851 
G01 X-0.4951 Y0.2851 
G01 X-0.4700 Y0.2600 
G01 X-0.4449 Y0.2851 
G01 X-0.3951 Y0.2851 
G01 X-0.3700 Y0.2600 
G01 X-0.3449 Y0.2851 
G00 Z0.0200 
G00 X-1.1499 Y0.2399 
G01 Z-0.0100 F10.00 
G01 X-1.1499 Y0.1901 
G01 X-1.1851 Y0.1549 
G01 X-1.2949 Y0.1549 
G01 X-1.3301 Y0.1901 
G01 X-1.3301 Y0.2399 
G01 X-1.3050 Y0.2650 
G01 X-1.3301 Y0.2901 
G01 X-1.3301 Y0.3399 
G01 X-1.3050 Y0.3650 
G01 X-1.3301 Y0.3901 
G01 X-1.3301 Y0.4399 
G01 X-1.2949 Y0.4751 
G01 X-1.1851 Y0.4751 
G01 X-1.1499 Y0.4399 
G01 X-1.1499 Y0.3901 
G01 X-1.1750 Y0.3650 
G01 X-1.1499 Y0.3399 
G01 X-1.1499 Y0.2901 
G01 X-1.1750 Y0.2650 
G01 X-1.1499 Y0.2399 
G00 Z0.0200 
G00 X-1.1281 Y0.6309 
G01 Z-0.0100 F10.00 
G01 X-1.1281 Y0.6791 
G01 X-1.0941 Y0.7131 
G01 X-1.0459 Y0.7131 
G01 X-1.0119 Y0.6791 
G01 X-1.0119 Y0.6309 
G01 X-1.0459 Y0.5969 
G01 X-1.0941 Y0.5969 
G01 X-1.1281 Y0.6309 
G00 Z0.0200 
G00 X-1.1281 Y0.0309 
G01 Z-0.0100 F10.00 
G01 X-1.1281 Y0.0791 
G01 X-1.0941 Y0.1131 
G01 X-1.0459 Y0.1131 
G01 X-1.0119 Y0.0791 
G01 X-1.0119 Y0.0309 
G01 X-1.0459 Y-0.0031 
G01 X-1.0941 Y-0.0031 
G01 X-1.1281 Y0.0309 
(File Footer)
G00 Z0.0200 
G00 Z0.5000 
M05
M02
