( This gcode generated by C:/Program Files/EAGLE-4.13/ulp/pcb-gcode.ulp )
( Copyright 2005 by John Johnson. See readme.txt for licensing terms. )

( This file generated from the board C:/Program Files/EAGLE-4.13/projects/Kline converter/kline to db9.brd )
( This file generated  2/18/2010 10:42:43p )

G20

G90
G00 Z0.5000 
G00 X0 Y0
M03
G04 P3.000000
G00 Z0.0200 
G00 X1.3971 Y0.9079 
G01 Z-0.0100 F10.00 
G01 X1.3971 Y0.9221 
G01 X1.3294 Y0.9898 
G01 X1.3301 Y0.9905 
G01 X1.3301 Y1.0795 
G01 X1.3095 Y1.1001 
G01 X1.2805 Y1.1001 
G01 X1.2599 Y1.0795 
G01 X1.2599 Y0.9905 
G01 X1.2805 Y0.9699 
G01 X1.3009 Y0.9699 
G01 X1.3629 Y0.9079 
G01 X1.3629 Y0.5621 
G01 X1.2509 Y0.4501 
G01 X1.1955 Y0.4501 
G01 X1.1749 Y0.4295 
G01 X1.1749 Y0.4005 
G01 X1.1955 Y0.3799 
G01 X1.2845 Y0.3799 
G01 X1.3051 Y0.4005 
G01 X1.3051 Y0.4295 
G01 X1.2919 Y0.4427 
G01 X1.3971 Y0.5479 
G01 X1.3971 Y0.5621 
G01 X1.3971 Y0.9079 
G00 Z0.0200 
G00 X0.2422 Y0.4543 
G01 Z-0.0100 F10.00 
G01 X0.2422 Y0.4729 
G01 X0.3847 Y0.4729 
G01 X0.3971 Y0.4729 
G01 X0.3973 Y0.4731 
G01 X0.4231 Y0.4731 
G01 X0.4260 Y0.4761 
G01 X0.4260 Y0.5039 
G01 X0.4231 Y0.5069 
G01 X0.3973 Y0.5069 
G01 X0.3971 Y0.5071 
G01 X0.3847 Y0.5071 
G01 X0.2422 Y0.5071 
G01 X0.2422 Y0.5176 
G01 X0.2392 Y0.5206 
G01 X0.1208 Y0.5206 
G01 X0.1178 Y0.5176 
G01 X0.1178 Y0.4543 
G01 X0.1208 Y0.4513 
G01 X0.2392 Y0.4513 
G01 X0.2422 Y0.4543 
G00 Z0.0200 
G00 X0.2422 Y0.6357 
G01 Z-0.0100 F10.00 
G01 X0.2392 Y0.6387 
G01 X0.1208 Y0.6387 
G01 X0.1178 Y0.6357 
G01 X0.1178 Y0.5724 
G01 X0.1208 Y0.5694 
G01 X0.2209 Y0.5694 
G01 X0.2379 Y0.5529 
G01 X0.2579 Y0.5329 
G01 X0.2679 Y0.5229 
G01 X0.3847 Y0.5229 
G01 X0.3871 Y0.5229 
G01 X0.3873 Y0.5231 
G01 X0.4231 Y0.5231 
G01 X0.4260 Y0.5261 
G01 X0.4260 Y0.5539 
G01 X0.4231 Y0.5569 
G01 X0.3873 Y0.5569 
G01 X0.3871 Y0.5571 
G01 X0.3847 Y0.5571 
G01 X0.2821 Y0.5571 
G01 X0.2571 Y0.5821 
G01 X0.2569 Y0.5821 
G01 X0.2422 Y0.5964 
G01 X0.2422 Y0.6357 
G00 Z0.0200 
G00 X0.2422 Y0.6743 
G01 Z-0.0100 F10.00 
G01 X0.2422 Y0.6829 
G01 X0.2579 Y0.6829 
G01 X0.2679 Y0.6729 
G01 X0.2679 Y0.6179 
G01 X0.2779 Y0.6079 
G01 X0.3129 Y0.5729 
G01 X0.3271 Y0.5729 
G01 X0.3847 Y0.5729 
G01 X0.3849 Y0.5731 
G01 X0.4231 Y0.5731 
G01 X0.4260 Y0.5761 
G01 X0.4260 Y0.6039 
G01 X0.4231 Y0.6069 
G01 X0.3849 Y0.6069 
G01 X0.3847 Y0.6071 
G01 X0.3271 Y0.6071 
G01 X0.3021 Y0.6321 
G01 X0.3021 Y0.6729 
G01 X0.3021 Y0.6871 
G01 X0.2821 Y0.7071 
G01 X0.2721 Y0.7171 
G01 X0.2422 Y0.7171 
G01 X0.2422 Y0.7376 
G01 X0.2392 Y0.7406 
G01 X0.1208 Y0.7406 
G01 X0.1178 Y0.7376 
G01 X0.1178 Y0.6743 
G01 X0.1208 Y0.6713 
G01 X0.2392 Y0.6713 
G01 X0.2422 Y0.6743 
G00 Z0.0200 
G00 X0.2422 Y0.2924 
G01 Z-0.0100 F10.00 
G01 X0.2422 Y0.3557 
G01 X0.2392 Y0.3587 
G01 X0.2378 Y0.3587 
G01 X0.3021 Y0.4229 
G01 X0.3847 Y0.4229 
G01 X0.3849 Y0.4231 
G01 X0.4231 Y0.4231 
G01 X0.4260 Y0.4261 
G01 X0.4260 Y0.4539 
G01 X0.4231 Y0.4569 
G01 X0.3849 Y0.4569 
G01 X0.3847 Y0.4571 
G01 X0.3021 Y0.4571 
G01 X0.2879 Y0.4571 
G01 X0.1895 Y0.3587 
G01 X0.1208 Y0.3587 
G01 X0.1178 Y0.3557 
G01 X0.1178 Y0.2924 
G01 X0.1208 Y0.2894 
G01 X0.2392 Y0.2894 
G01 X0.2422 Y0.2924 
G00 Z0.0200 
G00 X0.8122 Y0.7324 
G01 Z-0.0100 F10.00 
G01 X0.8122 Y0.7957 
G01 X0.8092 Y0.7987 
G01 X0.7521 Y0.7987 
G01 X0.7521 Y0.8299 
G01 X0.7621 Y0.8299 
G01 X0.7651 Y0.8329 
G01 X0.7651 Y0.9231 
G01 X0.7621 Y0.9261 
G01 X0.7159 Y0.9261 
G01 X0.7129 Y0.9231 
G01 X0.7129 Y0.8329 
G01 X0.7159 Y0.8299 
G01 X0.7179 Y0.8299 
G01 X0.7179 Y0.7987 
G01 X0.6908 Y0.7987 
G01 X0.6878 Y0.7957 
G01 X0.6878 Y0.7921 
G01 X0.6471 Y0.7921 
G01 X0.5471 Y0.8921 
G01 X0.5471 Y1.0479 
G01 X0.5571 Y1.0579 
G01 X1.0071 Y1.0579 
G01 X1.0171 Y1.0679 
G01 X1.0671 Y1.1179 
G01 X1.3479 Y1.1179 
G01 X1.3731 Y1.0927 
G01 X1.3599 Y1.0795 
G01 X1.3599 Y0.9905 
G01 X1.3805 Y0.9699 
G01 X1.4084 Y0.9699 
G01 X1.4129 Y0.9610 
G01 X1.4129 Y0.1321 
G01 X1.3529 Y0.0721 
G01 X1.0997 Y0.0721 
G01 X1.0837 Y0.0881 
G01 X1.0661 Y0.0881 
G01 X1.0271 Y0.1271 
G01 X1.0271 Y0.2829 
G01 X1.0271 Y0.2971 
G01 X0.9321 Y0.3921 
G01 X0.9321 Y0.4744 
G01 X0.9319 Y0.4746 
G01 X0.9319 Y0.5128 
G01 X0.9289 Y0.5158 
G01 X0.9011 Y0.5158 
G01 X0.8981 Y0.5128 
G01 X0.8981 Y0.4746 
G01 X0.8979 Y0.4744 
G01 X0.8979 Y0.3779 
G01 X0.9079 Y0.3679 
G01 X0.9929 Y0.2829 
G01 X0.9929 Y0.1129 
G01 X1.0029 Y0.1029 
G01 X1.0370 Y0.0688 
G01 X1.0369 Y0.0687 
G01 X1.0369 Y0.0413 
G01 X1.0563 Y0.0219 
G01 X1.0837 Y0.0219 
G01 X1.0997 Y0.0379 
G01 X1.3671 Y0.0379 
G01 X1.3771 Y0.0479 
G01 X1.4471 Y0.1179 
G01 X1.4471 Y0.1321 
G01 X1.4471 Y0.9721 
G01 X1.4440 Y0.9751 
G01 X1.4301 Y1.0030 
G01 X1.4301 Y1.0795 
G01 X1.4121 Y1.0975 
G01 X1.4121 Y1.1021 
G01 X1.4021 Y1.1121 
G01 X1.3621 Y1.1521 
G01 X1.3479 Y1.1521 
G01 X1.0671 Y1.1521 
G01 X1.0529 Y1.1521 
G01 X0.9929 Y1.0921 
G01 X0.5429 Y1.0921 
G01 X0.5329 Y1.0821 
G01 X0.5129 Y1.0621 
G01 X0.5129 Y1.0479 
G01 X0.5129 Y0.8779 
G01 X0.5229 Y0.8679 
G01 X0.6329 Y0.7579 
G01 X0.6471 Y0.7579 
G01 X0.6878 Y0.7579 
G01 X0.6878 Y0.7324 
G01 X0.6908 Y0.7294 
G01 X0.8092 Y0.7294 
G01 X0.8122 Y0.7324 
G00 Z0.0200 
G00 X0.9319 Y0.2172 
G01 Z-0.0100 F10.00 
G01 X0.9319 Y0.2601 
G01 X0.9321 Y0.2615 
G01 X0.9321 Y0.2697 
G01 X0.9319 Y0.2699 
G01 X0.9319 Y0.3081 
G01 X0.9289 Y0.3110 
G01 X0.9011 Y0.3110 
G01 X0.8981 Y0.3081 
G01 X0.8981 Y0.2652 
G01 X0.8977 Y0.2621 
G01 X0.8823 Y0.2621 
G01 X0.8821 Y0.2638 
G01 X0.8821 Y0.2697 
G01 X0.8819 Y0.2699 
G01 X0.8819 Y0.3081 
G01 X0.8789 Y0.3110 
G01 X0.8511 Y0.3110 
G01 X0.8481 Y0.3081 
G01 X0.8481 Y0.2699 
G01 X0.8479 Y0.2697 
G01 X0.8479 Y0.2615 
G01 X0.8479 Y0.1621 
G01 X0.7429 Y0.0571 
G01 X0.2021 Y0.0571 
G01 X0.0871 Y0.1721 
G01 X0.0871 Y0.9829 
G01 X0.1571 Y1.0529 
G01 X0.3179 Y1.0529 
G01 X0.3455 Y1.0253 
G01 X0.3444 Y1.0242 
G01 X0.3444 Y0.9058 
G01 X0.3474 Y0.9028 
G01 X0.4107 Y0.9028 
G01 X0.4137 Y0.9058 
G01 X0.4137 Y0.9479 
G01 X0.4363 Y0.9479 
G01 X0.4363 Y0.9058 
G01 X0.4393 Y0.9028 
G01 X0.4579 Y0.9028 
G01 X0.4579 Y0.7979 
G01 X0.4679 Y0.7879 
G01 X0.5489 Y0.7069 
G01 X0.5369 Y0.7069 
G01 X0.5340 Y0.7039 
G01 X0.5340 Y0.6761 
G01 X0.5369 Y0.6731 
G01 X0.5751 Y0.6731 
G01 X0.5753 Y0.6729 
G01 X0.5894 Y0.6729 
G01 X0.5896 Y0.6731 
G01 X0.6278 Y0.6731 
G01 X0.6308 Y0.6761 
G01 X0.6308 Y0.6879 
G01 X0.8329 Y0.6879 
G01 X0.8471 Y0.6879 
G01 X0.9515 Y0.7923 
G01 X1.0667 Y0.7923 
G01 X1.0697 Y0.7953 
G01 X1.0697 Y0.8547 
G01 X1.0667 Y0.8576 
G01 X0.9471 Y0.8576 
G01 X0.9471 Y0.9231 
G01 X0.9441 Y0.9261 
G01 X0.8979 Y0.9261 
G01 X0.8949 Y0.9231 
G01 X0.8949 Y0.8329 
G01 X0.8979 Y0.8299 
G01 X0.9029 Y0.8299 
G01 X0.9029 Y0.8179 
G01 X0.9129 Y0.8079 
G01 X0.9187 Y0.8079 
G01 X0.8329 Y0.7221 
G01 X0.5821 Y0.7221 
G01 X0.4921 Y0.8121 
G01 X0.4921 Y0.9028 
G01 X0.5026 Y0.9028 
G01 X0.5056 Y0.9058 
G01 X0.5056 Y1.0242 
G01 X0.5026 Y1.0272 
G01 X0.4393 Y1.0272 
G01 X0.4363 Y1.0242 
G01 X0.4363 Y0.9821 
G01 X0.4137 Y0.9821 
G01 X0.4137 Y1.0242 
G01 X0.4107 Y1.0272 
G01 X0.3821 Y1.0272 
G01 X0.3821 Y1.0371 
G01 X0.3421 Y1.0771 
G01 X0.3321 Y1.0871 
G01 X0.1571 Y1.0871 
G01 X0.1429 Y1.0871 
G01 X0.0629 Y1.0071 
G01 X0.0529 Y0.9971 
G01 X0.0529 Y0.1721 
G01 X0.0529 Y0.1579 
G01 X0.1779 Y0.0329 
G01 X0.1879 Y0.0229 
G01 X0.7571 Y0.0229 
G01 X0.7671 Y0.0329 
G01 X0.7671 Y0.0329 
G01 X0.8721 Y0.1379 
G01 X0.8721 Y0.1379 
G01 X0.8821 Y0.1479 
G01 X0.8821 Y0.2279 
G01 X0.8981 Y0.2279 
G01 X0.8981 Y0.2172 
G01 X0.9011 Y0.2142 
G01 X0.9289 Y0.2142 
G01 X0.9319 Y0.2172 
G00 Z0.0200 
G00 X0.8819 Y0.4219 
G01 Z-0.0100 F10.00 
G01 X0.8819 Y0.5128 
G01 X0.8789 Y0.5158 
G01 X0.8511 Y0.5158 
G01 X0.8481 Y0.5128 
G01 X0.8481 Y0.4219 
G01 X0.8511 Y0.4190 
G01 X0.8789 Y0.4190 
G01 X0.8819 Y0.4219 
G00 Z0.0200 
G00 X1.1805 Y0.9699 
G01 Z-0.0100 F10.00 
G01 X1.2095 Y0.9699 
G01 X1.2102 Y0.9706 
G01 X1.3079 Y0.8729 
G01 X1.3079 Y0.6671 
G01 X1.1129 Y0.4721 
G01 X1.1129 Y0.4579 
G01 X1.1129 Y0.2779 
G01 X1.1229 Y0.2679 
G01 X1.1229 Y0.2679 
G01 X1.1749 Y0.2159 
G01 X1.1749 Y0.2005 
G01 X1.1955 Y0.1799 
G01 X1.2845 Y0.1799 
G01 X1.3051 Y0.2005 
G01 X1.3051 Y0.2295 
G01 X1.2845 Y0.2501 
G01 X1.1955 Y0.2501 
G01 X1.1923 Y0.2469 
G01 X1.1471 Y0.2921 
G01 X1.1471 Y0.4579 
G01 X1.3321 Y0.6429 
G01 X1.3421 Y0.6529 
G01 X1.3421 Y0.8729 
G01 X1.3421 Y0.8871 
G01 X1.2301 Y0.9991 
G01 X1.2301 Y1.0795 
G01 X1.2095 Y1.1001 
G01 X1.1805 Y1.1001 
G01 X1.1599 Y1.0795 
G01 X1.1599 Y0.9905 
G01 X1.1805 Y0.9699 
G00 Z0.0200 
G00 X0.4345 Y0.2601 
G01 Z-0.0100 F10.00 
G01 X0.4141 Y0.2601 
G01 X0.3971 Y0.2771 
G01 X0.3971 Y0.3231 
G01 X0.4231 Y0.3231 
G01 X0.4260 Y0.3261 
G01 X0.4260 Y0.3539 
G01 X0.4231 Y0.3569 
G01 X0.3849 Y0.3569 
G01 X0.3847 Y0.3571 
G01 X0.3706 Y0.3571 
G01 X0.3704 Y0.3569 
G01 X0.3322 Y0.3569 
G01 X0.3292 Y0.3539 
G01 X0.3292 Y0.3261 
G01 X0.3322 Y0.3231 
G01 X0.3629 Y0.3231 
G01 X0.3629 Y0.2771 
G01 X0.3629 Y0.2629 
G01 X0.3856 Y0.2402 
G01 X0.3849 Y0.2395 
G01 X0.3849 Y0.1505 
G01 X0.4055 Y0.1299 
G01 X0.4345 Y0.1299 
G01 X0.4551 Y0.1505 
G01 X0.4551 Y0.2395 
G01 X0.4345 Y0.2601 
G00 Z0.0200 
G00 X0.9040 Y1.1193 
G01 Z-0.0100 F10.00 
G01 X0.9040 Y1.1787 
G01 X0.9010 Y1.1817 
G01 X0.7590 Y1.1817 
G01 X0.7560 Y1.1787 
G01 X0.7560 Y1.1193 
G01 X0.7590 Y1.1164 
G01 X0.9010 Y1.1164 
G01 X0.9040 Y1.1193 
G00 Z0.0200 
G00 X0.8561 Y0.8329 
G01 Z-0.0100 F10.00 
G01 X0.8561 Y0.9231 
G01 X0.8531 Y0.9261 
G01 X0.8371 Y0.9261 
G01 X0.8371 Y0.9829 
G01 X1.0675 Y0.9829 
G01 X1.0805 Y0.9699 
G01 X1.0829 Y0.9699 
G01 X1.0829 Y0.8929 
G01 X1.0929 Y0.8829 
G01 X1.1303 Y0.8455 
G01 X1.1303 Y0.7953 
G01 X1.1307 Y0.7949 
G01 X1.0929 Y0.7571 
G01 X0.9929 Y0.7571 
G01 X0.9829 Y0.7471 
G01 X0.8979 Y0.6621 
G01 X0.8190 Y0.6621 
G01 X0.8122 Y0.6622 
G01 X0.8122 Y0.6776 
G01 X0.8092 Y0.6806 
G01 X0.6908 Y0.6806 
G01 X0.6878 Y0.6776 
G01 X0.6878 Y0.6571 
G01 X0.6629 Y0.6571 
G01 X0.5894 Y0.6571 
G01 X0.5821 Y0.6571 
G01 X0.5129 Y0.6571 
G01 X0.5029 Y0.6471 
G01 X0.4429 Y0.5871 
G01 X0.4429 Y0.5729 
G01 X0.4429 Y0.2779 
G01 X0.4529 Y0.2679 
G01 X0.4849 Y0.2359 
G01 X0.4849 Y0.1505 
G01 X0.4881 Y0.1473 
G01 X0.4529 Y0.1121 
G01 X0.2680 Y0.1121 
G01 X0.2088 Y0.1713 
G01 X0.2392 Y0.1713 
G01 X0.2422 Y0.1743 
G01 X0.2422 Y0.2376 
G01 X0.2392 Y0.2406 
G01 X0.1208 Y0.2406 
G01 X0.1178 Y0.2376 
G01 X0.1178 Y0.1743 
G01 X0.1208 Y0.1713 
G01 X0.1629 Y0.1713 
G01 X0.1629 Y0.1689 
G01 X0.2439 Y0.0879 
G01 X0.2539 Y0.0779 
G01 X0.4529 Y0.0779 
G01 X0.4671 Y0.0779 
G01 X0.5191 Y0.1299 
G01 X0.5345 Y0.1299 
G01 X0.5551 Y0.1505 
G01 X0.5551 Y0.2395 
G01 X0.5345 Y0.2601 
G01 X0.5091 Y0.2601 
G01 X0.4771 Y0.2921 
G01 X0.4771 Y0.5729 
G01 X0.5271 Y0.6229 
G01 X0.5821 Y0.6229 
G01 X0.5894 Y0.6229 
G01 X0.6529 Y0.6229 
G01 X0.6529 Y0.3979 
G01 X0.6629 Y0.3879 
G01 X0.6629 Y0.3879 
G01 X0.6779 Y0.3729 
G01 X0.6779 Y0.3729 
G01 X0.6879 Y0.3629 
G01 X0.8071 Y0.3629 
G01 X0.8171 Y0.3729 
G01 X0.8321 Y0.3879 
G01 X0.8321 Y0.4021 
G01 X0.8321 Y0.4744 
G01 X0.8319 Y0.4746 
G01 X0.8319 Y0.5128 
G01 X0.8289 Y0.5158 
G01 X0.8011 Y0.5158 
G01 X0.7981 Y0.5128 
G01 X0.7981 Y0.4746 
G01 X0.7979 Y0.4744 
G01 X0.7979 Y0.4021 
G01 X0.7929 Y0.3971 
G01 X0.7021 Y0.3971 
G01 X0.6871 Y0.4121 
G01 X0.6871 Y0.6229 
G01 X0.6878 Y0.6229 
G01 X0.6878 Y0.6143 
G01 X0.6908 Y0.6113 
G01 X0.8092 Y0.6113 
G01 X0.8122 Y0.6143 
G01 X0.8122 Y0.6279 
G01 X0.8189 Y0.6279 
G01 X0.8194 Y0.6279 
G01 X0.8979 Y0.6279 
G01 X0.9121 Y0.6279 
G01 X1.0071 Y0.7229 
G01 X1.0929 Y0.7229 
G01 X1.1071 Y0.7229 
G01 X1.1765 Y0.7923 
G01 X1.2557 Y0.7923 
G01 X1.2586 Y0.7953 
G01 X1.2586 Y0.8547 
G01 X1.2557 Y0.8576 
G01 X1.1665 Y0.8576 
G01 X1.1171 Y0.9071 
G01 X1.1171 Y0.9775 
G01 X1.1301 Y0.9905 
G01 X1.1301 Y1.0795 
G01 X1.1095 Y1.1001 
G01 X1.0805 Y1.1001 
G01 X1.0599 Y1.0795 
G01 X1.0599 Y1.0171 
G01 X0.8271 Y1.0171 
G01 X0.8129 Y1.0171 
G01 X0.6237 Y1.0171 
G01 X0.6237 Y1.0242 
G01 X0.6207 Y1.0272 
G01 X0.5574 Y1.0272 
G01 X0.5544 Y1.0242 
G01 X0.5544 Y0.9058 
G01 X0.5574 Y0.9028 
G01 X0.6207 Y0.9028 
G01 X0.6237 Y0.9058 
G01 X0.6237 Y0.9829 
G01 X0.8029 Y0.9829 
G01 X0.8029 Y0.8821 
G01 X0.8029 Y0.8679 
G01 X0.8039 Y0.8669 
G01 X0.8039 Y0.8329 
G01 X0.8069 Y0.8299 
G01 X0.8531 Y0.8299 
G01 X0.8561 Y0.8329 
G00 Z0.0200 
G00 X0.6308 Y0.3761 
G01 Z-0.0100 F10.00 
G01 X0.6308 Y0.4039 
G01 X0.6278 Y0.4069 
G01 X0.5896 Y0.4069 
G01 X0.5894 Y0.4071 
G01 X0.5321 Y0.4071 
G01 X0.5179 Y0.4071 
G01 X0.4979 Y0.3871 
G01 X0.4879 Y0.3771 
G01 X0.4879 Y0.3221 
G01 X0.4879 Y0.3079 
G01 X0.5179 Y0.2779 
G01 X0.5279 Y0.2679 
G01 X0.5779 Y0.2679 
G01 X0.6829 Y0.1629 
G01 X0.6929 Y0.1529 
G01 X0.7879 Y0.1529 
G01 X0.8021 Y0.1529 
G01 X0.8221 Y0.1729 
G01 X0.8321 Y0.1829 
G01 X0.8321 Y0.2697 
G01 X0.8319 Y0.2699 
G01 X0.8319 Y0.3081 
G01 X0.8289 Y0.3110 
G01 X0.8011 Y0.3110 
G01 X0.7981 Y0.3081 
G01 X0.7981 Y0.2699 
G01 X0.7979 Y0.2697 
G01 X0.7979 Y0.1971 
G01 X0.7879 Y0.1871 
G01 X0.7071 Y0.1871 
G01 X0.5921 Y0.3021 
G01 X0.5779 Y0.3021 
G01 X0.5421 Y0.3021 
G01 X0.5221 Y0.3221 
G01 X0.5221 Y0.3629 
G01 X0.5321 Y0.3729 
G01 X0.5894 Y0.3729 
G01 X0.5896 Y0.3731 
G01 X0.6278 Y0.3731 
G01 X0.6308 Y0.3761 
G00 Z0.0200 
G00 X0.4260 Y0.3761 
G01 Z-0.0100 F10.00 
G01 X0.4260 Y0.4039 
G01 X0.4231 Y0.4069 
G01 X0.3849 Y0.4069 
G01 X0.3847 Y0.4071 
G01 X0.3271 Y0.4071 
G01 X0.3129 Y0.4071 
G01 X0.2829 Y0.3771 
G01 X0.2729 Y0.3671 
G01 X0.2729 Y0.2421 
G01 X0.2729 Y0.2293 
G01 X0.2729 Y0.2279 
G01 X0.2771 Y0.2238 
G01 X0.2849 Y0.2133 
G01 X0.2849 Y0.1505 
G01 X0.3055 Y0.1299 
G01 X0.3345 Y0.1299 
G01 X0.3551 Y0.1505 
G01 X0.3551 Y0.2395 
G01 X0.3345 Y0.2601 
G01 X0.3071 Y0.2601 
G01 X0.3071 Y0.3529 
G01 X0.3271 Y0.3729 
G01 X0.3847 Y0.3729 
G01 X0.3849 Y0.3731 
G01 X0.4231 Y0.3731 
G01 X0.4260 Y0.3761 
G00 Z0.0200 
G00 X0.5369 Y0.3569 
G01 Z-0.0100 F10.00 
G01 X0.5340 Y0.3539 
G01 X0.5340 Y0.3261 
G01 X0.5369 Y0.3231 
G01 X0.5751 Y0.3231 
G01 X0.5753 Y0.3229 
G01 X0.6529 Y0.3229 
G01 X0.6879 Y0.2879 
G01 X0.6979 Y0.2779 
G01 X0.7479 Y0.2779 
G01 X0.7479 Y0.2556 
G01 X0.7481 Y0.2554 
G01 X0.7481 Y0.2172 
G01 X0.7511 Y0.2142 
G01 X0.7789 Y0.2142 
G01 X0.7819 Y0.2172 
G01 X0.7819 Y0.2554 
G01 X0.7821 Y0.2556 
G01 X0.7821 Y0.3021 
G01 X0.7819 Y0.3023 
G01 X0.7819 Y0.3081 
G01 X0.7789 Y0.3110 
G01 X0.7731 Y0.3110 
G01 X0.7721 Y0.3121 
G01 X0.7579 Y0.3121 
G01 X0.7121 Y0.3121 
G01 X0.6671 Y0.3571 
G01 X0.6529 Y0.3571 
G01 X0.5753 Y0.3571 
G01 X0.5751 Y0.3569 
G01 X0.5369 Y0.3569 
G00 Z0.0200 
G00 X0.6308 Y0.4261 
G01 Z-0.0100 F10.00 
G01 X0.6308 Y0.4539 
G01 X0.6278 Y0.4569 
G01 X0.5369 Y0.4569 
G01 X0.5340 Y0.4539 
G01 X0.5340 Y0.4261 
G01 X0.5369 Y0.4231 
G01 X0.6278 Y0.4231 
G01 X0.6308 Y0.4261 
G00 Z0.0200 
G00 X0.6308 Y0.4761 
G01 Z-0.0100 F10.00 
G01 X0.6308 Y0.5039 
G01 X0.6278 Y0.5069 
G01 X0.5369 Y0.5069 
G01 X0.5340 Y0.5039 
G01 X0.5340 Y0.4761 
G01 X0.5369 Y0.4731 
G01 X0.6278 Y0.4731 
G01 X0.6308 Y0.4761 
G00 Z0.0200 
G00 X0.6308 Y0.5761 
G01 Z-0.0100 F10.00 
G01 X0.6308 Y0.6039 
G01 X0.6278 Y0.6069 
G01 X0.5369 Y0.6069 
G01 X0.5340 Y0.6039 
G01 X0.5340 Y0.5761 
G01 X0.5369 Y0.5731 
G01 X0.6278 Y0.5731 
G01 X0.6308 Y0.5761 
G00 Z0.0200 
G00 X0.4260 Y0.6761 
G01 Z-0.0100 F10.00 
G01 X0.4260 Y0.7039 
G01 X0.4231 Y0.7069 
G01 X0.3849 Y0.7069 
G01 X0.2697 Y0.8221 
G01 X0.2597 Y0.8321 
G01 X0.2422 Y0.8321 
G01 X0.2422 Y0.8557 
G01 X0.2392 Y0.8587 
G01 X0.1208 Y0.8587 
G01 X0.1178 Y0.8557 
G01 X0.1178 Y0.7924 
G01 X0.1208 Y0.7894 
G01 X0.2392 Y0.7894 
G01 X0.2422 Y0.7924 
G01 X0.2422 Y0.7979 
G01 X0.2456 Y0.7979 
G01 X0.3366 Y0.7069 
G01 X0.3322 Y0.7069 
G01 X0.3292 Y0.7039 
G01 X0.3292 Y0.6761 
G01 X0.3322 Y0.6731 
G01 X0.3704 Y0.6731 
G01 X0.3706 Y0.6729 
G01 X0.3847 Y0.6729 
G01 X0.3849 Y0.6731 
G01 X0.4231 Y0.6731 
G01 X0.4260 Y0.6761 
G00 Z0.0200 
G00 X0.6308 Y0.5261 
G01 Z-0.0100 F10.00 
G01 X0.6308 Y0.5539 
G01 X0.6278 Y0.5569 
G01 X0.5369 Y0.5569 
G01 X0.5340 Y0.5539 
G01 X0.5340 Y0.5261 
G01 X0.5369 Y0.5231 
G01 X0.6278 Y0.5231 
G01 X0.6308 Y0.5261 
G00 Z0.0200 
G00 X0.3322 Y0.6569 
G01 Z-0.0100 F10.00 
G01 X0.3292 Y0.6539 
G01 X0.3292 Y0.6261 
G01 X0.3322 Y0.6231 
G01 X0.3704 Y0.6231 
G01 X0.3706 Y0.6229 
G01 X0.4279 Y0.6229 
G01 X0.4421 Y0.6229 
G01 X0.4721 Y0.6529 
G01 X0.4821 Y0.6629 
G01 X0.4821 Y0.7221 
G01 X0.4721 Y0.7321 
G01 X0.4721 Y0.7321 
G01 X0.2956 Y0.9086 
G01 X0.2956 Y1.0242 
G01 X0.2926 Y1.0272 
G01 X0.2293 Y1.0272 
G01 X0.2263 Y1.0242 
G01 X0.2263 Y0.9058 
G01 X0.2293 Y0.9028 
G01 X0.2530 Y0.9028 
G01 X0.4479 Y0.7079 
G01 X0.4479 Y0.6771 
G01 X0.4279 Y0.6571 
G01 X0.3706 Y0.6571 
G01 X0.3704 Y0.6569 
G01 X0.3322 Y0.6569 
G00 Z0.0200 
G00 X1.0871 Y0.6253 
G01 Z-0.0100 F10.00 
G01 X1.1031 Y0.6413 
G01 X1.1031 Y0.6687 
G01 X1.0837 Y0.6881 
G01 X1.0563 Y0.6881 
G01 X1.0369 Y0.6687 
G01 X1.0369 Y0.6413 
G01 X1.0529 Y0.6253 
G01 X1.0529 Y0.5921 
G01 X0.7929 Y0.5921 
G01 X0.7829 Y0.5821 
G01 X0.7479 Y0.5471 
G01 X0.7479 Y0.5329 
G01 X0.7479 Y0.4603 
G01 X0.7481 Y0.4601 
G01 X0.7481 Y0.4219 
G01 X0.7511 Y0.4190 
G01 X0.7789 Y0.4190 
G01 X0.7819 Y0.4219 
G01 X0.7819 Y0.4601 
G01 X0.7821 Y0.4603 
G01 X0.7821 Y0.5329 
G01 X0.8071 Y0.5579 
G01 X1.0529 Y0.5579 
G01 X1.0529 Y0.1821 
G01 X1.0529 Y0.1679 
G01 X1.1129 Y0.1079 
G01 X1.1229 Y0.0979 
G01 X1.2929 Y0.0979 
G01 X1.3071 Y0.0979 
G01 X1.3471 Y0.1379 
G01 X1.3571 Y0.1479 
G01 X1.3571 Y0.2579 
G01 X1.3571 Y0.2721 
G01 X1.3051 Y0.3241 
G01 X1.3051 Y0.3295 
G01 X1.2845 Y0.3501 
G01 X1.1955 Y0.3501 
G01 X1.1749 Y0.3295 
G01 X1.1749 Y0.3005 
G01 X1.1955 Y0.2799 
G01 X1.2845 Y0.2799 
G01 X1.2927 Y0.2881 
G01 X1.3229 Y0.2579 
G01 X1.3229 Y0.1621 
G01 X1.2929 Y0.1321 
G01 X1.1371 Y0.1321 
G01 X1.0871 Y0.1821 
G01 X1.0871 Y0.5679 
G01 X1.0871 Y0.5821 
G01 X1.0871 Y0.6253 
G00 Z0.0200 
G00 X0.5553 Y0.8978 
G01 Z-0.0100 F10.00 
G01 X0.6228 Y0.8978 
G01 X0.6287 Y0.9037 
G01 X0.6287 Y0.9779 
G01 X0.7979 Y0.9779 
G01 X0.7979 Y0.8841 
G01 X0.7979 Y0.8658 
G01 X0.7989 Y0.8648 
G01 X0.7989 Y0.8308 
G01 X0.8048 Y0.8249 
G01 X0.8552 Y0.8249 
G01 X0.8611 Y0.8308 
G01 X0.8611 Y0.9252 
G01 X0.8552 Y0.9311 
G01 X0.8421 Y0.9311 
G01 X0.8421 Y0.9779 
G01 X1.0654 Y0.9779 
G01 X1.0779 Y0.9654 
G01 X1.0779 Y0.8908 
G01 X1.0908 Y0.8779 
G01 X1.1253 Y0.8434 
G01 X1.1253 Y0.7966 
G01 X1.0908 Y0.7621 
G01 X0.9908 Y0.7621 
G01 X0.9779 Y0.7491 
G01 X0.8958 Y0.6671 
G01 X0.8191 Y0.6671 
G01 X0.8172 Y0.6671 
G01 X0.8172 Y0.6797 
G01 X0.8139 Y0.6829 
G01 X0.8308 Y0.6829 
G01 X0.8491 Y0.6829 
G01 X0.9536 Y0.7873 
G01 X1.0687 Y0.7873 
G01 X1.0747 Y0.7933 
G01 X1.0747 Y0.8567 
G01 X1.0687 Y0.8626 
G01 X0.9521 Y0.8626 
G01 X0.9521 Y0.9252 
G01 X0.9462 Y0.9311 
G01 X0.8958 Y0.9311 
G01 X0.8899 Y0.9252 
G01 X0.8899 Y0.8308 
G01 X0.8958 Y0.8249 
G01 X0.8979 Y0.8249 
G01 X0.8979 Y0.8158 
G01 X0.9088 Y0.8050 
G01 X0.8308 Y0.7271 
G01 X0.8139 Y0.7271 
G01 X0.8172 Y0.7303 
G01 X0.8172 Y0.7978 
G01 X0.8113 Y0.8037 
G01 X0.7571 Y0.8037 
G01 X0.7571 Y0.8249 
G01 X0.7642 Y0.8249 
G01 X0.7701 Y0.8308 
G01 X0.7701 Y0.9252 
G01 X0.7642 Y0.9311 
G01 X0.7138 Y0.9311 
G01 X0.7079 Y0.9252 
G01 X0.7079 Y0.8308 
G01 X0.7129 Y0.8258 
G01 X0.7129 Y0.8037 
G01 X0.6887 Y0.8037 
G01 X0.6828 Y0.7978 
G01 X0.6828 Y0.7971 
G01 X0.6491 Y0.7971 
G01 X0.5521 Y0.8941 
G01 X0.5521 Y0.9011 
G01 X0.5553 Y0.8978 
G00 Z0.0200 
G00 X0.6308 Y0.7529 
G01 Z-0.0100 F10.00 
G01 X0.6491 Y0.7529 
G01 X0.6828 Y0.7529 
G01 X0.6828 Y0.7303 
G01 X0.6861 Y0.7271 
G01 X0.5841 Y0.7271 
G01 X0.4971 Y0.8141 
G01 X0.4971 Y0.8978 
G01 X0.5047 Y0.8978 
G01 X0.5079 Y0.9011 
G01 X0.5079 Y0.8758 
G01 X0.5208 Y0.8629 
G01 X0.6308 Y0.7529 
G00 Z0.0200 
G00 X1.4021 Y0.9058 
G01 Z-0.0100 F10.00 
G01 X1.4021 Y0.9241 
G01 X1.3351 Y0.9911 
G01 X1.3351 Y1.0816 
G01 X1.3116 Y1.1051 
G01 X1.2784 Y1.1051 
G01 X1.2549 Y1.0816 
G01 X1.2549 Y0.9884 
G01 X1.2784 Y0.9649 
G01 X1.2989 Y0.9649 
G01 X1.3579 Y0.9058 
G01 X1.3579 Y0.5641 
G01 X1.2488 Y0.4551 
G01 X1.1934 Y0.4551 
G01 X1.1699 Y0.4316 
G01 X1.1699 Y0.3984 
G01 X1.1934 Y0.3749 
G01 X1.2866 Y0.3749 
G01 X1.3101 Y0.3984 
G01 X1.3101 Y0.4316 
G01 X1.2990 Y0.4427 
G01 X1.4021 Y0.5458 
G01 X1.4021 Y0.5641 
G01 X1.4021 Y0.9058 
G00 Z0.0200 
G00 X0.2472 Y0.4522 
G01 Z-0.0100 F10.00 
G01 X0.2472 Y0.4679 
G01 X0.3868 Y0.4679 
G01 X0.3991 Y0.4679 
G01 X0.3993 Y0.4681 
G01 X0.4251 Y0.4681 
G01 X0.4310 Y0.4740 
G01 X0.4310 Y0.5060 
G01 X0.4251 Y0.5119 
G01 X0.3993 Y0.5119 
G01 X0.3991 Y0.5121 
G01 X0.3868 Y0.5121 
G01 X0.2472 Y0.5121 
G01 X0.2472 Y0.5197 
G01 X0.2413 Y0.5256 
G01 X0.1187 Y0.5256 
G01 X0.1128 Y0.5197 
G01 X0.1128 Y0.4522 
G01 X0.1187 Y0.4463 
G01 X0.2413 Y0.4463 
G01 X0.2472 Y0.4522 
G00 Z0.0200 
G00 X0.2472 Y0.6378 
G01 Z-0.0100 F10.00 
G01 X0.2413 Y0.6437 
G01 X0.1187 Y0.6437 
G01 X0.1128 Y0.6378 
G01 X0.1128 Y0.5703 
G01 X0.1187 Y0.5644 
G01 X0.2188 Y0.5644 
G01 X0.2345 Y0.5493 
G01 X0.2529 Y0.5308 
G01 X0.2658 Y0.5179 
G01 X0.3868 Y0.5179 
G01 X0.3891 Y0.5179 
G01 X0.3893 Y0.5181 
G01 X0.4251 Y0.5181 
G01 X0.4310 Y0.5240 
G01 X0.4310 Y0.5560 
G01 X0.4251 Y0.5619 
G01 X0.3893 Y0.5619 
G01 X0.3891 Y0.5621 
G01 X0.3868 Y0.5621 
G01 X0.2841 Y0.5621 
G01 X0.2591 Y0.5871 
G01 X0.2589 Y0.5871 
G01 X0.2472 Y0.5985 
G01 X0.2472 Y0.6378 
G00 Z0.0200 
G00 X0.2472 Y0.2903 
G01 Z-0.0100 F10.00 
G01 X0.2472 Y0.3578 
G01 X0.2456 Y0.3593 
G01 X0.3041 Y0.4179 
G01 X0.3868 Y0.4179 
G01 X0.3870 Y0.4181 
G01 X0.4251 Y0.4181 
G01 X0.4310 Y0.4240 
G01 X0.4310 Y0.4560 
G01 X0.4251 Y0.4619 
G01 X0.3870 Y0.4619 
G01 X0.3868 Y0.4621 
G01 X0.3041 Y0.4621 
G01 X0.2858 Y0.4621 
G01 X0.1874 Y0.3637 
G01 X0.1187 Y0.3637 
G01 X0.1128 Y0.3578 
G01 X0.1128 Y0.2903 
G01 X0.1187 Y0.2844 
G01 X0.2413 Y0.2844 
G01 X0.2472 Y0.2903 
G00 Z0.0200 
G00 X0.8369 Y0.3101 
G01 Z-0.0100 F10.00 
G01 X0.8310 Y0.3160 
G01 X0.7990 Y0.3160 
G01 X0.7931 Y0.3101 
G01 X0.7931 Y0.2720 
G01 X0.7929 Y0.2718 
G01 X0.7929 Y0.1991 
G01 X0.7858 Y0.1921 
G01 X0.7091 Y0.1921 
G01 X0.5941 Y0.3071 
G01 X0.5758 Y0.3071 
G01 X0.5441 Y0.3071 
G01 X0.5271 Y0.3241 
G01 X0.5271 Y0.3608 
G01 X0.5341 Y0.3679 
G01 X0.5915 Y0.3679 
G01 X0.5917 Y0.3681 
G01 X0.6299 Y0.3681 
G01 X0.6358 Y0.3740 
G01 X0.6358 Y0.4060 
G01 X0.6299 Y0.4119 
G01 X0.5917 Y0.4119 
G01 X0.5915 Y0.4121 
G01 X0.5341 Y0.4121 
G01 X0.5158 Y0.4121 
G01 X0.4958 Y0.3921 
G01 X0.4829 Y0.3791 
G01 X0.4829 Y0.3241 
G01 X0.4829 Y0.3058 
G01 X0.5129 Y0.2758 
G01 X0.5237 Y0.2651 
G01 X0.5111 Y0.2651 
G01 X0.4821 Y0.2941 
G01 X0.4821 Y0.5708 
G01 X0.5291 Y0.6179 
G01 X0.5841 Y0.6179 
G01 X0.5915 Y0.6179 
G01 X0.6479 Y0.6179 
G01 X0.6479 Y0.3958 
G01 X0.6608 Y0.3829 
G01 X0.6609 Y0.3829 
G01 X0.6729 Y0.3709 
G01 X0.6729 Y0.3708 
G01 X0.6858 Y0.3579 
G01 X0.8091 Y0.3579 
G01 X0.8221 Y0.3708 
G01 X0.8371 Y0.3858 
G01 X0.8371 Y0.4041 
G01 X0.8371 Y0.4765 
G01 X0.8369 Y0.4767 
G01 X0.8369 Y0.5149 
G01 X0.8310 Y0.5208 
G01 X0.7990 Y0.5208 
G01 X0.7931 Y0.5149 
G01 X0.7931 Y0.4767 
G01 X0.7929 Y0.4765 
G01 X0.7929 Y0.4041 
G01 X0.7908 Y0.4021 
G01 X0.7041 Y0.4021 
G01 X0.6921 Y0.4141 
G01 X0.6921 Y0.6063 
G01 X0.8113 Y0.6063 
G01 X0.8172 Y0.6122 
G01 X0.8172 Y0.6229 
G01 X0.8189 Y0.6229 
G01 X0.8195 Y0.6229 
G01 X0.8958 Y0.6229 
G01 X0.9141 Y0.6229 
G01 X1.0091 Y0.7179 
G01 X1.0908 Y0.7179 
G01 X1.1091 Y0.7179 
G01 X1.1786 Y0.7873 
G01 X1.2577 Y0.7873 
G01 X1.2636 Y0.7933 
G01 X1.2636 Y0.8567 
G01 X1.2577 Y0.8626 
G01 X1.1686 Y0.8626 
G01 X1.1221 Y0.9091 
G01 X1.1221 Y0.9754 
G01 X1.1351 Y0.9884 
G01 X1.1351 Y1.0816 
G01 X1.1116 Y1.1051 
G01 X1.0784 Y1.1051 
G01 X1.0549 Y1.0816 
G01 X1.0549 Y1.0221 
G01 X0.8291 Y1.0221 
G01 X0.8108 Y1.0221 
G01 X0.6287 Y1.0221 
G01 X0.6287 Y1.0263 
G01 X0.6228 Y1.0322 
G01 X0.5553 Y1.0322 
G01 X0.5521 Y1.0289 
G01 X0.5521 Y1.0458 
G01 X0.5591 Y1.0529 
G01 X1.0091 Y1.0529 
G01 X1.0221 Y1.0658 
G01 X1.0691 Y1.1129 
G01 X1.3458 Y1.1129 
G01 X1.3660 Y1.0927 
G01 X1.3549 Y1.0816 
G01 X1.3549 Y0.9884 
G01 X1.3784 Y0.9649 
G01 X1.4053 Y0.9649 
G01 X1.4079 Y0.9598 
G01 X1.4079 Y0.1341 
G01 X1.3508 Y0.0771 
G01 X1.1018 Y0.0771 
G01 X1.0858 Y0.0931 
G01 X1.0681 Y0.0931 
G01 X1.0321 Y0.1291 
G01 X1.0321 Y0.2808 
G01 X1.0321 Y0.2991 
G01 X0.9371 Y0.3941 
G01 X0.9371 Y0.4765 
G01 X0.9369 Y0.4767 
G01 X0.9369 Y0.5149 
G01 X0.9310 Y0.5208 
G01 X0.8990 Y0.5208 
G01 X0.8931 Y0.5149 
G01 X0.8931 Y0.4767 
G01 X0.8929 Y0.4765 
G01 X0.8929 Y0.3758 
G01 X0.9058 Y0.3629 
G01 X0.9879 Y0.2808 
G01 X0.9879 Y0.1108 
G01 X1.0008 Y0.0979 
G01 X1.0319 Y0.0668 
G01 X1.0319 Y0.0392 
G01 X1.0542 Y0.0169 
G01 X1.0858 Y0.0169 
G01 X1.1018 Y0.0329 
G01 X1.3691 Y0.0329 
G01 X1.3821 Y0.0458 
G01 X1.4521 Y0.1158 
G01 X1.4521 Y0.1341 
G01 X1.4521 Y0.9741 
G01 X1.4482 Y0.9781 
G01 X1.4351 Y1.0042 
G01 X1.4351 Y1.0816 
G01 X1.4171 Y1.0996 
G01 X1.4171 Y1.1041 
G01 X1.4041 Y1.1171 
G01 X1.3641 Y1.1571 
G01 X1.3458 Y1.1571 
G01 X1.0691 Y1.1571 
G01 X1.0508 Y1.1571 
G01 X0.9908 Y1.0971 
G01 X0.5408 Y1.0971 
G01 X0.5279 Y1.0841 
G01 X0.5079 Y1.0641 
G01 X0.5079 Y1.0458 
G01 X0.5079 Y1.0289 
G01 X0.5047 Y1.0322 
G01 X0.4372 Y1.0322 
G01 X0.4313 Y1.0263 
G01 X0.4313 Y0.9871 
G01 X0.4187 Y0.9871 
G01 X0.4187 Y1.0263 
G01 X0.4128 Y1.0322 
G01 X0.3871 Y1.0322 
G01 X0.3871 Y1.0391 
G01 X0.3471 Y1.0791 
G01 X0.3341 Y1.0921 
G01 X0.1591 Y1.0921 
G01 X0.1408 Y1.0921 
G01 X0.0608 Y1.0121 
G01 X0.0479 Y0.9991 
G01 X0.0479 Y0.1741 
G01 X0.0479 Y0.1558 
G01 X0.1729 Y0.0308 
G01 X0.1858 Y0.0179 
G01 X0.7591 Y0.0179 
G01 X0.7721 Y0.0308 
G01 X0.7721 Y0.0309 
G01 X0.8741 Y0.1329 
G01 X0.8741 Y0.1329 
G01 X0.8871 Y0.1458 
G01 X0.8871 Y0.2229 
G01 X0.8931 Y0.2229 
G01 X0.8931 Y0.2151 
G01 X0.8990 Y0.2092 
G01 X0.9310 Y0.2092 
G01 X0.9369 Y0.2151 
G01 X0.9369 Y0.2598 
G01 X0.9371 Y0.2612 
G01 X0.9371 Y0.2718 
G01 X0.9369 Y0.2720 
G01 X0.9369 Y0.3101 
G01 X0.9310 Y0.3160 
G01 X0.8990 Y0.3160 
G01 X0.8931 Y0.3101 
G01 X0.8931 Y0.2671 
G01 X0.8871 Y0.2671 
G01 X0.8871 Y0.2718 
G01 X0.8869 Y0.2720 
G01 X0.8869 Y0.3101 
G01 X0.8810 Y0.3160 
G01 X0.8490 Y0.3160 
G01 X0.8431 Y0.3101 
G01 X0.8431 Y0.2720 
G01 X0.8429 Y0.2718 
G01 X0.8429 Y0.2612 
G01 X0.8429 Y0.1641 
G01 X0.7409 Y0.0621 
G01 X0.2041 Y0.0621 
G01 X0.0921 Y0.1741 
G01 X0.0921 Y0.9808 
G01 X0.1591 Y1.0479 
G01 X0.3158 Y1.0479 
G01 X0.3394 Y1.0243 
G01 X0.3394 Y0.9037 
G01 X0.3453 Y0.8978 
G01 X0.4128 Y0.8978 
G01 X0.4187 Y0.9037 
G01 X0.4187 Y0.9429 
G01 X0.4313 Y0.9429 
G01 X0.4313 Y0.9037 
G01 X0.4372 Y0.8978 
G01 X0.4529 Y0.8978 
G01 X0.4529 Y0.7958 
G01 X0.4658 Y0.7829 
G01 X0.5369 Y0.7119 
G01 X0.5349 Y0.7119 
G01 X0.5290 Y0.7060 
G01 X0.5290 Y0.6740 
G01 X0.5349 Y0.6681 
G01 X0.5730 Y0.6681 
G01 X0.5732 Y0.6679 
G01 X0.5915 Y0.6679 
G01 X0.5917 Y0.6681 
G01 X0.6299 Y0.6681 
G01 X0.6358 Y0.6740 
G01 X0.6358 Y0.6829 
G01 X0.6861 Y0.6829 
G01 X0.6828 Y0.6797 
G01 X0.6828 Y0.6621 
G01 X0.6608 Y0.6621 
G01 X0.5915 Y0.6621 
G01 X0.5841 Y0.6621 
G01 X0.5108 Y0.6621 
G01 X0.4979 Y0.6491 
G01 X0.4379 Y0.5891 
G01 X0.4379 Y0.5708 
G01 X0.4379 Y0.2758 
G01 X0.4508 Y0.2629 
G01 X0.4799 Y0.2339 
G01 X0.4799 Y0.1484 
G01 X0.4810 Y0.1473 
G01 X0.4508 Y0.1171 
G01 X0.2701 Y0.1171 
G01 X0.2209 Y0.1663 
G01 X0.2413 Y0.1663 
G01 X0.2472 Y0.1722 
G01 X0.2472 Y0.2397 
G01 X0.2413 Y0.2456 
G01 X0.1187 Y0.2456 
G01 X0.1128 Y0.2397 
G01 X0.1128 Y0.1722 
G01 X0.1187 Y0.1663 
G01 X0.1584 Y0.1663 
G01 X0.2389 Y0.0858 
G01 X0.2518 Y0.0729 
G01 X0.4508 Y0.0729 
G01 X0.4691 Y0.0729 
G01 X0.5211 Y0.1249 
G01 X0.5366 Y0.1249 
G01 X0.5601 Y0.1484 
G01 X0.5601 Y0.2416 
G01 X0.5388 Y0.2629 
G01 X0.5758 Y0.2629 
G01 X0.6779 Y0.1608 
G01 X0.6908 Y0.1479 
G01 X0.7858 Y0.1479 
G01 X0.8041 Y0.1479 
G01 X0.8241 Y0.1679 
G01 X0.8371 Y0.1808 
G01 X0.8371 Y0.2718 
G01 X0.8369 Y0.2720 
G01 X0.8369 Y0.3101 
G00 Z0.0200 
G00 X0.8869 Y0.4199 
G01 Z-0.0100 F10.00 
G01 X0.8869 Y0.5149 
G01 X0.8810 Y0.5208 
G01 X0.8490 Y0.5208 
G01 X0.8431 Y0.5149 
G01 X0.8431 Y0.4199 
G01 X0.8490 Y0.4140 
G01 X0.8810 Y0.4140 
G01 X0.8869 Y0.4199 
G00 Z0.0200 
G00 X1.1784 Y0.9649 
G01 Z-0.0100 F10.00 
G01 X1.2089 Y0.9649 
G01 X1.3029 Y0.8708 
G01 X1.3029 Y0.6691 
G01 X1.1079 Y0.4741 
G01 X1.1079 Y0.4558 
G01 X1.1079 Y0.2758 
G01 X1.1208 Y0.2629 
G01 X1.1209 Y0.2629 
G01 X1.1699 Y0.2138 
G01 X1.1699 Y0.1984 
G01 X1.1934 Y0.1749 
G01 X1.2866 Y0.1749 
G01 X1.3101 Y0.1984 
G01 X1.3101 Y0.2316 
G01 X1.2866 Y0.2551 
G01 X1.1934 Y0.2551 
G01 X1.1923 Y0.2540 
G01 X1.1521 Y0.2941 
G01 X1.1521 Y0.4558 
G01 X1.3341 Y0.6379 
G01 X1.3471 Y0.6508 
G01 X1.3471 Y0.8708 
G01 X1.3471 Y0.8891 
G01 X1.2351 Y1.0011 
G01 X1.2351 Y1.0816 
G01 X1.2116 Y1.1051 
G01 X1.1784 Y1.1051 
G01 X1.1549 Y1.0816 
G01 X1.1549 Y0.9884 
G01 X1.1784 Y0.9649 
G00 Z0.0200 
G00 X0.9090 Y1.1173 
G01 Z-0.0100 F10.00 
G01 X0.9090 Y1.1807 
G01 X0.9031 Y1.1867 
G01 X0.7569 Y1.1867 
G01 X0.7510 Y1.1807 
G01 X0.7510 Y1.1173 
G01 X0.7569 Y1.1114 
G01 X0.9031 Y1.1114 
G01 X0.9090 Y1.1173 
G00 Z0.0200 
G00 X0.4310 Y0.3240 
G01 Z-0.0100 F10.00 
G01 X0.4310 Y0.3560 
G01 X0.4251 Y0.3619 
G01 X0.3870 Y0.3619 
G01 X0.3868 Y0.3621 
G01 X0.3685 Y0.3621 
G01 X0.3683 Y0.3619 
G01 X0.3301 Y0.3619 
G01 X0.3242 Y0.3560 
G01 X0.3242 Y0.3240 
G01 X0.3301 Y0.3181 
G01 X0.3579 Y0.3181 
G01 X0.3579 Y0.2791 
G01 X0.3579 Y0.2608 
G01 X0.3799 Y0.2388 
G01 X0.3799 Y0.1484 
G01 X0.4034 Y0.1249 
G01 X0.4366 Y0.1249 
G01 X0.4601 Y0.1484 
G01 X0.4601 Y0.2416 
G01 X0.4366 Y0.2651 
G01 X0.4161 Y0.2651 
G01 X0.4021 Y0.2791 
G01 X0.4021 Y0.3181 
G01 X0.4251 Y0.3181 
G01 X0.4310 Y0.3240 
G00 Z0.0200 
G00 X0.4310 Y0.3740 
G01 Z-0.0100 F10.00 
G01 X0.4310 Y0.4060 
G01 X0.4251 Y0.4119 
G01 X0.3870 Y0.4119 
G01 X0.3868 Y0.4121 
G01 X0.3291 Y0.4121 
G01 X0.3108 Y0.4121 
G01 X0.2808 Y0.3821 
G01 X0.2679 Y0.3691 
G01 X0.2679 Y0.2441 
G01 X0.2679 Y0.2276 
G01 X0.2679 Y0.2258 
G01 X0.2733 Y0.2205 
G01 X0.2799 Y0.2116 
G01 X0.2799 Y0.1484 
G01 X0.3034 Y0.1249 
G01 X0.3366 Y0.1249 
G01 X0.3601 Y0.1484 
G01 X0.3601 Y0.2416 
G01 X0.3366 Y0.2651 
G01 X0.3121 Y0.2651 
G01 X0.3121 Y0.3508 
G01 X0.3291 Y0.3679 
G01 X0.3868 Y0.3679 
G01 X0.3870 Y0.3681 
G01 X0.4251 Y0.3681 
G01 X0.4310 Y0.3740 
G00 Z0.0200 
G00 X0.5349 Y0.3619 
G01 Z-0.0100 F10.00 
G01 X0.5290 Y0.3560 
G01 X0.5290 Y0.3240 
G01 X0.5349 Y0.3181 
G01 X0.5730 Y0.3181 
G01 X0.5732 Y0.3179 
G01 X0.6508 Y0.3179 
G01 X0.6829 Y0.2858 
G01 X0.6958 Y0.2729 
G01 X0.7429 Y0.2729 
G01 X0.7429 Y0.2535 
G01 X0.7431 Y0.2533 
G01 X0.7431 Y0.2151 
G01 X0.7490 Y0.2092 
G01 X0.7810 Y0.2092 
G01 X0.7869 Y0.2151 
G01 X0.7869 Y0.2533 
G01 X0.7871 Y0.2535 
G01 X0.7871 Y0.3041 
G01 X0.7869 Y0.3043 
G01 X0.7869 Y0.3101 
G01 X0.7810 Y0.3160 
G01 X0.7752 Y0.3160 
G01 X0.7741 Y0.3171 
G01 X0.7558 Y0.3171 
G01 X0.7141 Y0.3171 
G01 X0.6691 Y0.3621 
G01 X0.6508 Y0.3621 
G01 X0.5732 Y0.3621 
G01 X0.5730 Y0.3619 
G01 X0.5349 Y0.3619 
G00 Z0.0200 
G00 X0.6358 Y0.4240 
G01 Z-0.0100 F10.00 
G01 X0.6358 Y0.4560 
G01 X0.6299 Y0.4619 
G01 X0.5349 Y0.4619 
G01 X0.5290 Y0.4560 
G01 X0.5290 Y0.4240 
G01 X0.5349 Y0.4181 
G01 X0.6299 Y0.4181 
G01 X0.6358 Y0.4240 
G00 Z0.0200 
G00 X0.6358 Y0.4740 
G01 Z-0.0100 F10.00 
G01 X0.6358 Y0.5060 
G01 X0.6299 Y0.5119 
G01 X0.5349 Y0.5119 
G01 X0.5290 Y0.5060 
G01 X0.5290 Y0.4740 
G01 X0.5349 Y0.4681 
G01 X0.6299 Y0.4681 
G01 X0.6358 Y0.4740 
G00 Z0.0200 
G00 X0.6358 Y0.5740 
G01 Z-0.0100 F10.00 
G01 X0.6358 Y0.6060 
G01 X0.6299 Y0.6119 
G01 X0.5349 Y0.6119 
G01 X0.5290 Y0.6060 
G01 X0.5290 Y0.5740 
G01 X0.5349 Y0.5681 
G01 X0.6299 Y0.5681 
G01 X0.6358 Y0.5740 
G00 Z0.0200 
G00 X0.4310 Y0.5740 
G01 Z-0.0100 F10.00 
G01 X0.4310 Y0.6060 
G01 X0.4251 Y0.6119 
G01 X0.3870 Y0.6119 
G01 X0.3868 Y0.6121 
G01 X0.3291 Y0.6121 
G01 X0.3071 Y0.6341 
G01 X0.3071 Y0.6708 
G01 X0.3071 Y0.6891 
G01 X0.2871 Y0.7091 
G01 X0.2741 Y0.7221 
G01 X0.2472 Y0.7221 
G01 X0.2472 Y0.7397 
G01 X0.2413 Y0.7456 
G01 X0.1187 Y0.7456 
G01 X0.1128 Y0.7397 
G01 X0.1128 Y0.6722 
G01 X0.1187 Y0.6663 
G01 X0.2413 Y0.6663 
G01 X0.2472 Y0.6722 
G01 X0.2472 Y0.6779 
G01 X0.2558 Y0.6779 
G01 X0.2629 Y0.6708 
G01 X0.2629 Y0.6158 
G01 X0.2758 Y0.6029 
G01 X0.3108 Y0.5679 
G01 X0.3291 Y0.5679 
G01 X0.3868 Y0.5679 
G01 X0.3870 Y0.5681 
G01 X0.4251 Y0.5681 
G01 X0.4310 Y0.5740 
G00 Z0.0200 
G00 X0.4310 Y0.6740 
G01 Z-0.0100 F10.00 
G01 X0.4310 Y0.7060 
G01 X0.4251 Y0.7119 
G01 X0.3870 Y0.7119 
G01 X0.2747 Y0.8241 
G01 X0.2618 Y0.8371 
G01 X0.2472 Y0.8371 
G01 X0.2472 Y0.8578 
G01 X0.2413 Y0.8637 
G01 X0.1187 Y0.8637 
G01 X0.1128 Y0.8578 
G01 X0.1128 Y0.7903 
G01 X0.1187 Y0.7844 
G01 X0.2413 Y0.7844 
G01 X0.2466 Y0.7898 
G01 X0.3273 Y0.7091 
G01 X0.3242 Y0.7060 
G01 X0.3242 Y0.6740 
G01 X0.3301 Y0.6681 
G01 X0.3683 Y0.6681 
G01 X0.3685 Y0.6679 
G01 X0.3868 Y0.6679 
G01 X0.3870 Y0.6681 
G01 X0.4251 Y0.6681 
G01 X0.4310 Y0.6740 
G00 Z0.0200 
G00 X0.6358 Y0.5240 
G01 Z-0.0100 F10.00 
G01 X0.6358 Y0.5560 
G01 X0.6299 Y0.5619 
G01 X0.5349 Y0.5619 
G01 X0.5290 Y0.5560 
G01 X0.5290 Y0.5240 
G01 X0.5349 Y0.5181 
G01 X0.6299 Y0.5181 
G01 X0.6358 Y0.5240 
G00 Z0.0200 
G00 X0.3301 Y0.6619 
G01 Z-0.0100 F10.00 
G01 X0.3242 Y0.6560 
G01 X0.3242 Y0.6240 
G01 X0.3301 Y0.6181 
G01 X0.3683 Y0.6181 
G01 X0.3685 Y0.6179 
G01 X0.4258 Y0.6179 
G01 X0.4441 Y0.6179 
G01 X0.4741 Y0.6479 
G01 X0.4871 Y0.6608 
G01 X0.4871 Y0.7241 
G01 X0.4741 Y0.7371 
G01 X0.4741 Y0.7371 
G01 X0.3006 Y0.9107 
G01 X0.3006 Y1.0263 
G01 X0.2947 Y1.0322 
G01 X0.2272 Y1.0322 
G01 X0.2213 Y1.0263 
G01 X0.2213 Y0.9037 
G01 X0.2272 Y0.8978 
G01 X0.2509 Y0.8978 
G01 X0.4429 Y0.7059 
G01 X0.4429 Y0.6791 
G01 X0.4258 Y0.6621 
G01 X0.3685 Y0.6621 
G01 X0.3683 Y0.6619 
G01 X0.3301 Y0.6619 
G00 Z0.0200 
G00 X1.0921 Y0.6232 
G01 Z-0.0100 F10.00 
G01 X1.1081 Y0.6392 
G01 X1.1081 Y0.6708 
G01 X1.0858 Y0.6931 
G01 X1.0542 Y0.6931 
G01 X1.0319 Y0.6708 
G01 X1.0319 Y0.6392 
G01 X1.0479 Y0.6232 
G01 X1.0479 Y0.5971 
G01 X0.7908 Y0.5971 
G01 X0.7779 Y0.5841 
G01 X0.7429 Y0.5491 
G01 X0.7429 Y0.5308 
G01 X0.7429 Y0.4582 
G01 X0.7431 Y0.4580 
G01 X0.7431 Y0.4199 
G01 X0.7490 Y0.4140 
G01 X0.7810 Y0.4140 
G01 X0.7869 Y0.4199 
G01 X0.7869 Y0.4580 
G01 X0.7871 Y0.4582 
G01 X0.7871 Y0.5308 
G01 X0.8091 Y0.5529 
G01 X1.0479 Y0.5529 
G01 X1.0479 Y0.1841 
G01 X1.0479 Y0.1658 
G01 X1.1079 Y0.1058 
G01 X1.1208 Y0.0929 
G01 X1.2908 Y0.0929 
G01 X1.3091 Y0.0929 
G01 X1.3491 Y0.1329 
G01 X1.3621 Y0.1458 
G01 X1.3621 Y0.2558 
G01 X1.3621 Y0.2741 
G01 X1.3101 Y0.3261 
G01 X1.3101 Y0.3316 
G01 X1.2866 Y0.3551 
G01 X1.1934 Y0.3551 
G01 X1.1699 Y0.3316 
G01 X1.1699 Y0.2984 
G01 X1.1934 Y0.2749 
G01 X1.2866 Y0.2749 
G01 X1.2927 Y0.2810 
G01 X1.3179 Y0.2558 
G01 X1.3179 Y0.1641 
G01 X1.2908 Y0.1371 
G01 X1.1391 Y0.1371 
G01 X1.0921 Y0.1841 
G01 X1.0921 Y0.5658 
G01 X1.0921 Y0.5841 
G01 X1.0921 Y0.6232 
G00 Z0.0200 
G00 X1.0971 Y0.6212 
G01 Z-0.0100 F10.00 
G01 X1.1131 Y0.6371 
G01 X1.1131 Y0.6728 
G01 X1.0878 Y0.6981 
G01 X1.0521 Y0.6981 
G01 X1.0269 Y0.6728 
G01 X1.0269 Y0.6371 
G01 X1.0429 Y0.6212 
G01 X1.0429 Y0.6021 
G01 X0.8141 Y0.6021 
G01 X0.8222 Y0.6102 
G01 X0.8222 Y0.6179 
G01 X0.8938 Y0.6179 
G01 X0.9162 Y0.6179 
G01 X1.0112 Y0.7129 
G01 X1.0888 Y0.7129 
G01 X1.1112 Y0.7129 
G01 X1.1807 Y0.7823 
G01 X1.2598 Y0.7823 
G01 X1.2686 Y0.7912 
G01 X1.2686 Y0.8588 
G01 X1.2598 Y0.8676 
G01 X1.1707 Y0.8676 
G01 X1.1271 Y0.9112 
G01 X1.1271 Y0.9733 
G01 X1.1401 Y0.9863 
G01 X1.1401 Y1.0837 
G01 X1.1159 Y1.1079 
G01 X1.1741 Y1.1079 
G01 X1.1499 Y1.0837 
G01 X1.1499 Y0.9863 
G01 X1.1763 Y0.9599 
G01 X1.2068 Y0.9599 
G01 X1.2979 Y0.8688 
G01 X1.2979 Y0.6712 
G01 X1.1029 Y0.4762 
G01 X1.1029 Y0.4538 
G01 X1.1029 Y0.2738 
G01 X1.1188 Y0.2579 
G01 X1.1188 Y0.2579 
G01 X1.1649 Y0.2118 
G01 X1.1649 Y0.1963 
G01 X1.1913 Y0.1699 
G01 X1.2887 Y0.1699 
G01 X1.3129 Y0.1941 
G01 X1.3129 Y0.1662 
G01 X1.2888 Y0.1421 
G01 X1.1412 Y0.1421 
G01 X1.0971 Y0.1862 
G01 X1.0971 Y0.5638 
G01 X1.0971 Y0.5862 
G01 X1.0971 Y0.6212 
G00 Z0.0200 
G00 X1.2401 Y1.0837 
G01 Z-0.0100 F10.00 
G01 X1.2159 Y1.1079 
G01 X1.2741 Y1.1079 
G01 X1.2499 Y1.0837 
G01 X1.2499 Y0.9934 
G01 X1.2401 Y1.0032 
G01 X1.2401 Y1.0837 
G00 Z0.0200 
G00 X1.3401 Y1.0837 
G01 Z-0.0100 F10.00 
G01 X1.3159 Y1.1079 
G01 X1.3438 Y1.1079 
G01 X1.3590 Y1.0927 
G01 X1.3499 Y1.0837 
G01 X1.3499 Y0.9863 
G01 X1.3763 Y0.9599 
G01 X1.4023 Y0.9599 
G01 X1.4029 Y0.9586 
G01 X1.4029 Y0.9304 
G01 X1.3401 Y0.9932 
G01 X1.3401 Y1.0837 
G00 Z0.0200 
G00 X0.4291 Y0.4650 
G01 Z-0.0100 F10.00 
G01 X0.4329 Y0.4688 
G01 X0.4329 Y0.4612 
G01 X0.4291 Y0.4650 
G00 Z0.0200 
G00 X0.4291 Y0.5150 
G01 Z-0.0100 F10.00 
G01 X0.4329 Y0.5188 
G01 X0.4329 Y0.5112 
G01 X0.4291 Y0.5150 
G00 Z0.0200 
G00 X0.4291 Y0.5650 
G01 Z-0.0100 F10.00 
G01 X0.4329 Y0.5688 
G01 X0.4329 Y0.5688 
G01 X0.4329 Y0.5612 
G01 X0.4291 Y0.5650 
G00 Z0.0200 
G00 X0.4291 Y0.3650 
G01 Z-0.0100 F10.00 
G01 X0.4329 Y0.3688 
G01 X0.4329 Y0.3612 
G01 X0.4291 Y0.3650 
G00 Z0.0200 
G00 X0.4291 Y0.4150 
G01 Z-0.0100 F10.00 
G01 X0.4329 Y0.4188 
G01 X0.4329 Y0.4112 
G01 X0.4291 Y0.4150 
G00 Z0.0200 
G00 X0.7751 Y0.8288 
G01 Z-0.0100 F10.00 
G01 X0.7751 Y0.9273 
G01 X0.7663 Y0.9361 
G01 X0.7118 Y0.9361 
G01 X0.7029 Y0.9273 
G01 X0.7029 Y0.8288 
G01 X0.7079 Y0.8238 
G01 X0.7079 Y0.8087 
G01 X0.6867 Y0.8087 
G01 X0.6801 Y0.8021 
G01 X0.6512 Y0.8021 
G01 X0.5605 Y0.8928 
G01 X0.6248 Y0.8928 
G01 X0.6337 Y0.9017 
G01 X0.6337 Y0.9729 
G01 X0.7929 Y0.9729 
G01 X0.7929 Y0.8862 
G01 X0.7929 Y0.8638 
G01 X0.7939 Y0.8628 
G01 X0.7939 Y0.8287 
G01 X0.8028 Y0.8199 
G01 X0.8573 Y0.8199 
G01 X0.8661 Y0.8287 
G01 X0.8661 Y0.9273 
G01 X0.8573 Y0.9361 
G01 X0.8471 Y0.9361 
G01 X0.8471 Y0.9729 
G01 X1.0633 Y0.9729 
G01 X1.0729 Y0.9633 
G01 X1.0729 Y0.8888 
G01 X1.0888 Y0.8729 
G01 X1.1203 Y0.8413 
G01 X1.1203 Y0.7987 
G01 X1.0888 Y0.7671 
G01 X0.9888 Y0.7671 
G01 X0.9729 Y0.7512 
G01 X0.8938 Y0.6721 
G01 X0.8222 Y0.6721 
G01 X0.8222 Y0.6779 
G01 X0.8288 Y0.6779 
G01 X0.8512 Y0.6779 
G01 X0.9557 Y0.7823 
G01 X1.0708 Y0.7823 
G01 X1.0797 Y0.7912 
G01 X1.0797 Y0.8588 
G01 X1.0708 Y0.8676 
G01 X0.9571 Y0.8676 
G01 X0.9571 Y0.9272 
G01 X0.9483 Y0.9361 
G01 X0.8938 Y0.9361 
G01 X0.8849 Y0.9272 
G01 X0.8849 Y0.8287 
G01 X0.8929 Y0.8207 
G01 X0.8929 Y0.8138 
G01 X0.9017 Y0.8050 
G01 X0.8288 Y0.7321 
G01 X0.8222 Y0.7321 
G01 X0.8222 Y0.7998 
G01 X0.8133 Y0.8087 
G01 X0.7621 Y0.8087 
G01 X0.7621 Y0.8199 
G01 X0.7663 Y0.8199 
G01 X0.7751 Y0.8288 
G00 Z0.0200 
G00 X0.6778 Y0.7479 
G01 Z-0.0100 F10.00 
G01 X0.6778 Y0.7321 
G01 X0.5862 Y0.7321 
G01 X0.5021 Y0.8162 
G01 X0.5021 Y0.8928 
G01 X0.5029 Y0.8928 
G01 X0.5029 Y0.8738 
G01 X0.5188 Y0.8579 
G01 X0.6288 Y0.7479 
G01 X0.6512 Y0.7479 
G01 X0.6778 Y0.7479 
G00 Z0.0200 
G00 X0.4749 Y0.1482 
G01 Z-0.0100 F10.00 
G01 X0.4488 Y0.1221 
G01 X0.4409 Y0.1221 
G01 X0.4651 Y0.1463 
G01 X0.4651 Y0.2416 
G01 X0.4749 Y0.2318 
G01 X0.4749 Y0.1482 
G00 Z0.0200 
G00 X0.7379 Y0.4561 
G01 Z-0.0100 F10.00 
G01 X0.7381 Y0.4559 
G01 X0.7381 Y0.4178 
G01 X0.7469 Y0.4090 
G01 X0.7831 Y0.4090 
G01 X0.7879 Y0.4138 
G01 X0.7879 Y0.4071 
G01 X0.7062 Y0.4071 
G01 X0.6971 Y0.4162 
G01 X0.6971 Y0.6013 
G01 X0.7880 Y0.6013 
G01 X0.7729 Y0.5862 
G01 X0.7379 Y0.5512 
G01 X0.7379 Y0.5288 
G01 X0.7379 Y0.4561 
G00 Z0.0200 
G00 X0.4871 Y0.5688 
G01 Z-0.0100 F10.00 
G01 X0.5240 Y0.6056 
G01 X0.5240 Y0.5719 
G01 X0.5309 Y0.5650 
G01 X0.5240 Y0.5581 
G01 X0.5240 Y0.5219 
G01 X0.5309 Y0.5150 
G01 X0.5240 Y0.5081 
G01 X0.5240 Y0.4719 
G01 X0.5309 Y0.4650 
G01 X0.5240 Y0.4581 
G01 X0.5240 Y0.4219 
G01 X0.5288 Y0.4171 
G01 X0.5138 Y0.4171 
G01 X0.4938 Y0.3971 
G01 X0.4871 Y0.3904 
G01 X0.4871 Y0.5688 
G00 Z0.0200 
G00 X0.3192 Y0.3509 
G01 Z-0.0100 F10.00 
G01 X0.3192 Y0.3219 
G01 X0.3281 Y0.3131 
G01 X0.3529 Y0.3131 
G01 X0.3529 Y0.2812 
G01 X0.3529 Y0.2588 
G01 X0.3749 Y0.2368 
G01 X0.3749 Y0.1463 
G01 X0.3991 Y0.1221 
G01 X0.3409 Y0.1221 
G01 X0.3651 Y0.1463 
G01 X0.3651 Y0.2437 
G01 X0.3387 Y0.2701 
G01 X0.3171 Y0.2701 
G01 X0.3171 Y0.3488 
G01 X0.3192 Y0.3509 
G00 Z0.0200 
G00 X0.4272 Y0.3131 
G01 Z-0.0100 F10.00 
G01 X0.4329 Y0.3188 
G01 X0.4329 Y0.2738 
G01 X0.4366 Y0.2701 
G01 X0.4182 Y0.2701 
G01 X0.4071 Y0.2812 
G01 X0.4071 Y0.3131 
G01 X0.4272 Y0.3131 
G00 Z0.0200 
G00 X0.6408 Y0.3719 
G01 Z-0.0100 F10.00 
G01 X0.6408 Y0.4081 
G01 X0.6338 Y0.4150 
G01 X0.6408 Y0.4219 
G01 X0.6408 Y0.4581 
G01 X0.6338 Y0.4650 
G01 X0.6408 Y0.4719 
G01 X0.6408 Y0.5081 
G01 X0.6338 Y0.5150 
G01 X0.6408 Y0.5219 
G01 X0.6408 Y0.5581 
G01 X0.6338 Y0.5650 
G01 X0.6408 Y0.5719 
G01 X0.6408 Y0.6081 
G01 X0.6359 Y0.6129 
G01 X0.6429 Y0.6129 
G01 X0.6429 Y0.3938 
G01 X0.6588 Y0.3779 
G01 X0.6588 Y0.3779 
G01 X0.6679 Y0.3688 
G01 X0.6679 Y0.3688 
G01 X0.6696 Y0.3671 
G01 X0.6488 Y0.3671 
G01 X0.6359 Y0.3671 
G01 X0.6408 Y0.3719 
G00 Z0.0200 
G00 X0.7381 Y0.2131 
G01 Z-0.0100 F10.00 
G01 X0.7469 Y0.2042 
G01 X0.7831 Y0.2042 
G01 X0.7879 Y0.2091 
G01 X0.7879 Y0.2012 
G01 X0.7838 Y0.1971 
G01 X0.7112 Y0.1971 
G01 X0.5962 Y0.3121 
G01 X0.5738 Y0.3121 
G01 X0.5462 Y0.3121 
G01 X0.5452 Y0.3131 
G01 X0.5709 Y0.3131 
G01 X0.5711 Y0.3129 
G01 X0.6488 Y0.3129 
G01 X0.6779 Y0.2838 
G01 X0.6938 Y0.2679 
G01 X0.7379 Y0.2679 
G01 X0.7379 Y0.2514 
G01 X0.7381 Y0.2512 
G01 X0.7381 Y0.2131 
G00 Z0.0200 
G00 X1.0712 Y1.1079 
G01 Z-0.0100 F10.00 
G01 X1.0741 Y1.1079 
G01 X1.0499 Y1.0837 
G01 X1.0499 Y1.0271 
G01 X0.8312 Y1.0271 
G01 X0.8088 Y1.0271 
G01 X0.6337 Y1.0271 
G01 X0.6337 Y1.0283 
G01 X0.6248 Y1.0372 
G01 X0.5571 Y1.0372 
G01 X0.5571 Y1.0438 
G01 X0.5612 Y1.0479 
G01 X1.0112 Y1.0479 
G01 X1.0271 Y1.0638 
G01 X1.0712 Y1.1079 
G00 Z0.0200 
G00 X0.6408 Y0.6719 
G01 Z-0.0100 F10.00 
G01 X0.6408 Y0.6779 
G01 X0.6778 Y0.6779 
G01 X0.6778 Y0.6671 
G01 X0.6588 Y0.6671 
G01 X0.6359 Y0.6671 
G01 X0.6408 Y0.6719 
G00 Z0.0200 
G00 X1.1649 Y0.4337 
G01 Z-0.0100 F10.00 
G01 X1.1649 Y0.3963 
G01 X1.1913 Y0.3699 
G01 X1.2887 Y0.3699 
G01 X1.3151 Y0.3963 
G01 X1.3151 Y0.4337 
G01 X1.3060 Y0.4427 
G01 X1.4029 Y0.5396 
G01 X1.4029 Y0.1362 
G01 X1.3488 Y0.0821 
G01 X1.1038 Y0.0821 
G01 X1.0878 Y0.0981 
G01 X1.0702 Y0.0981 
G01 X1.0371 Y0.1312 
G01 X1.0371 Y0.2788 
G01 X1.0371 Y0.3012 
G01 X0.9421 Y0.3962 
G01 X0.9421 Y0.4786 
G01 X0.9419 Y0.4788 
G01 X0.9419 Y0.5169 
G01 X0.9331 Y0.5258 
G01 X0.8969 Y0.5258 
G01 X0.8900 Y0.5188 
G01 X0.8831 Y0.5258 
G01 X0.8469 Y0.5258 
G01 X0.8400 Y0.5188 
G01 X0.8331 Y0.5258 
G01 X0.7969 Y0.5258 
G01 X0.7921 Y0.5209 
G01 X0.7921 Y0.5288 
G01 X0.8112 Y0.5479 
G01 X1.0429 Y0.5479 
G01 X1.0429 Y0.1862 
G01 X1.0429 Y0.1638 
G01 X1.1029 Y0.1038 
G01 X1.1188 Y0.0879 
G01 X1.2888 Y0.0879 
G01 X1.3112 Y0.0879 
G01 X1.3512 Y0.1279 
G01 X1.3671 Y0.1438 
G01 X1.3671 Y0.2538 
G01 X1.3671 Y0.2762 
G01 X1.3151 Y0.3282 
G01 X1.3151 Y0.3337 
G01 X1.2887 Y0.3601 
G01 X1.1913 Y0.3601 
G01 X1.1649 Y0.3337 
G01 X1.1649 Y0.2963 
G01 X1.1913 Y0.2699 
G01 X1.2887 Y0.2699 
G01 X1.2927 Y0.2740 
G01 X1.3129 Y0.2538 
G01 X1.3129 Y0.2359 
G01 X1.2887 Y0.2601 
G01 X1.1932 Y0.2601 
G01 X1.1571 Y0.2962 
G01 X1.1571 Y0.4538 
G01 X1.3362 Y0.6329 
G01 X1.3521 Y0.6488 
G01 X1.3521 Y0.8688 
G01 X1.3521 Y0.8912 
G01 X1.2834 Y0.9599 
G01 X1.2968 Y0.9599 
G01 X1.3529 Y0.9038 
G01 X1.3529 Y0.5662 
G01 X1.2468 Y0.4601 
G01 X1.1913 Y0.4601 
G01 X1.1649 Y0.4337 
G00 Z0.0200 
G00 X0.4379 Y0.6812 
G01 Z-0.0100 F10.00 
G01 X0.4360 Y0.6793 
G01 X0.4360 Y0.7056 
G01 X0.4379 Y0.7038 
G01 X0.4379 Y0.6812 
G00 Z0.0200 
G00 X0.2522 Y0.6398 
G01 Z-0.0100 F10.00 
G01 X0.2433 Y0.6487 
G01 X0.1167 Y0.6487 
G01 X0.1078 Y0.6398 
G01 X0.1078 Y0.5683 
G01 X0.1167 Y0.5594 
G01 X0.2168 Y0.5594 
G01 X0.2309 Y0.5458 
G01 X0.2479 Y0.5288 
G01 X0.2596 Y0.5171 
G01 X0.2522 Y0.5171 
G01 X0.2522 Y0.5217 
G01 X0.2433 Y0.5306 
G01 X0.1167 Y0.5306 
G01 X0.1078 Y0.5217 
G01 X0.1078 Y0.4502 
G01 X0.1167 Y0.4413 
G01 X0.2433 Y0.4413 
G01 X0.2522 Y0.4502 
G01 X0.2522 Y0.4629 
G01 X0.2796 Y0.4629 
G01 X0.1854 Y0.3687 
G01 X0.1167 Y0.3687 
G01 X0.1078 Y0.3598 
G01 X0.1078 Y0.2883 
G01 X0.1167 Y0.2794 
G01 X0.2433 Y0.2794 
G01 X0.2522 Y0.2883 
G01 X0.2522 Y0.3589 
G01 X0.2629 Y0.3696 
G01 X0.2629 Y0.2462 
G01 X0.2629 Y0.2260 
G01 X0.2629 Y0.2238 
G01 X0.2695 Y0.2172 
G01 X0.2749 Y0.2100 
G01 X0.2749 Y0.1463 
G01 X0.2991 Y0.1221 
G01 X0.2722 Y0.1221 
G01 X0.2329 Y0.1613 
G01 X0.2433 Y0.1613 
G01 X0.2522 Y0.1702 
G01 X0.2522 Y0.2417 
G01 X0.2433 Y0.2506 
G01 X0.1167 Y0.2506 
G01 X0.1078 Y0.2417 
G01 X0.1078 Y0.1702 
G01 X0.1167 Y0.1613 
G01 X0.1563 Y0.1613 
G01 X0.2339 Y0.0838 
G01 X0.2497 Y0.0679 
G01 X0.4488 Y0.0679 
G01 X0.4712 Y0.0679 
G01 X0.5232 Y0.1199 
G01 X0.5387 Y0.1199 
G01 X0.5651 Y0.1463 
G01 X0.5651 Y0.2437 
G01 X0.5509 Y0.2579 
G01 X0.5738 Y0.2579 
G01 X0.6729 Y0.1588 
G01 X0.6888 Y0.1429 
G01 X0.7838 Y0.1429 
G01 X0.8062 Y0.1429 
G01 X0.8262 Y0.1629 
G01 X0.8379 Y0.1746 
G01 X0.8379 Y0.1662 
G01 X0.7388 Y0.0671 
G01 X0.2062 Y0.0671 
G01 X0.0971 Y0.1762 
G01 X0.0971 Y0.9788 
G01 X0.1612 Y1.0429 
G01 X0.3138 Y1.0429 
G01 X0.3344 Y1.0222 
G01 X0.3344 Y0.9017 
G01 X0.3433 Y0.8928 
G01 X0.4148 Y0.8928 
G01 X0.4237 Y0.9017 
G01 X0.4237 Y0.9379 
G01 X0.4263 Y0.9379 
G01 X0.4263 Y0.9017 
G01 X0.4352 Y0.8928 
G01 X0.4479 Y0.8928 
G01 X0.4479 Y0.7938 
G01 X0.4638 Y0.7779 
G01 X0.5288 Y0.7129 
G01 X0.5240 Y0.7081 
G01 X0.5240 Y0.6719 
G01 X0.5288 Y0.6671 
G01 X0.5088 Y0.6671 
G01 X0.4929 Y0.6512 
G01 X0.4360 Y0.5943 
G01 X0.4360 Y0.6081 
G01 X0.4312 Y0.6129 
G01 X0.4462 Y0.6129 
G01 X0.4762 Y0.6429 
G01 X0.4921 Y0.6588 
G01 X0.4921 Y0.7262 
G01 X0.4762 Y0.7421 
G01 X0.4762 Y0.7421 
G01 X0.3056 Y0.9127 
G01 X0.3056 Y1.0283 
G01 X0.2967 Y1.0372 
G01 X0.2252 Y1.0372 
G01 X0.2163 Y1.0283 
G01 X0.2163 Y0.9017 
G01 X0.2252 Y0.8928 
G01 X0.2489 Y0.8928 
G01 X0.4248 Y0.7169 
G01 X0.3890 Y0.7169 
G01 X0.2797 Y0.8262 
G01 X0.2639 Y0.8421 
G01 X0.2522 Y0.8421 
G01 X0.2522 Y0.8598 
G01 X0.2433 Y0.8687 
G01 X0.1167 Y0.8687 
G01 X0.1078 Y0.8598 
G01 X0.1078 Y0.7883 
G01 X0.1167 Y0.7794 
G01 X0.2433 Y0.7794 
G01 X0.2466 Y0.7827 
G01 X0.3202 Y0.7091 
G01 X0.3192 Y0.7081 
G01 X0.3192 Y0.6719 
G01 X0.3262 Y0.6650 
G01 X0.3192 Y0.6581 
G01 X0.3192 Y0.6291 
G01 X0.3121 Y0.6362 
G01 X0.3121 Y0.6688 
G01 X0.3121 Y0.6912 
G01 X0.2921 Y0.7112 
G01 X0.2762 Y0.7271 
G01 X0.2522 Y0.7271 
G01 X0.2522 Y0.7417 
G01 X0.2433 Y0.7506 
G01 X0.1167 Y0.7506 
G01 X0.1078 Y0.7417 
G01 X0.1078 Y0.6702 
G01 X0.1167 Y0.6613 
G01 X0.2433 Y0.6613 
G01 X0.2522 Y0.6702 
G01 X0.2522 Y0.6729 
G01 X0.2538 Y0.6729 
G01 X0.2579 Y0.6688 
G01 X0.2579 Y0.6138 
G01 X0.2738 Y0.5979 
G01 X0.3046 Y0.5671 
G01 X0.2862 Y0.5671 
G01 X0.2612 Y0.5921 
G01 X0.2610 Y0.5921 
G01 X0.2522 Y0.6006 
G01 X0.2522 Y0.6398 
G00 Z0.0200 
G00 X0.9829 Y0.1088 
G01 Z-0.0100 F10.00 
G01 X0.9988 Y0.0929 
G01 X1.0269 Y0.0648 
G01 X1.0269 Y0.0371 
G01 X1.0521 Y0.0119 
G01 X1.0878 Y0.0119 
G01 X1.1038 Y0.0279 
G01 X1.3712 Y0.0279 
G01 X1.3871 Y0.0438 
G01 X1.4571 Y0.1138 
G01 X1.4571 Y0.1362 
G01 X1.4571 Y0.9762 
G01 X1.4523 Y0.9810 
G01 X1.4401 Y1.0054 
G01 X1.4401 Y1.0837 
G01 X1.4221 Y1.1017 
G01 X1.4221 Y1.1062 
G01 X1.4062 Y1.1221 
G01 X1.3662 Y1.1621 
G01 X1.3438 Y1.1621 
G01 X1.0712 Y1.1621 
G01 X1.0488 Y1.1621 
G01 X0.9888 Y1.1021 
G01 X0.5388 Y1.1021 
G01 X0.5229 Y1.0862 
G01 X0.5029 Y1.0662 
G01 X0.5029 Y1.0438 
G01 X0.5029 Y1.0372 
G01 X0.4352 Y1.0372 
G01 X0.4263 Y1.0283 
G01 X0.4263 Y0.9921 
G01 X0.4237 Y0.9921 
G01 X0.4237 Y1.0283 
G01 X0.4148 Y1.0372 
G01 X0.3921 Y1.0372 
G01 X0.3921 Y1.0412 
G01 X0.3521 Y1.0812 
G01 X0.3362 Y1.0971 
G01 X0.1612 Y1.0971 
G01 X0.1388 Y1.0971 
G01 X0.0588 Y1.0171 
G01 X0.0429 Y1.0012 
G01 X0.0429 Y0.1762 
G01 X0.0429 Y0.1538 
G01 X0.1679 Y0.0288 
G01 X0.1838 Y0.0129 
G01 X0.7612 Y0.0129 
G01 X0.7771 Y0.0288 
G01 X0.7771 Y0.0288 
G01 X0.8762 Y0.1279 
G01 X0.8762 Y0.1279 
G01 X0.8921 Y0.1438 
G01 X0.8921 Y0.2091 
G01 X0.8969 Y0.2042 
G01 X0.9331 Y0.2042 
G01 X0.9419 Y0.2131 
G01 X0.9419 Y0.2594 
G01 X0.9421 Y0.2608 
G01 X0.9421 Y0.2739 
G01 X0.9419 Y0.2740 
G01 X0.9419 Y0.3122 
G01 X0.9331 Y0.3210 
G01 X0.8969 Y0.3210 
G01 X0.8900 Y0.3141 
G01 X0.8831 Y0.3210 
G01 X0.8469 Y0.3210 
G01 X0.8400 Y0.3141 
G01 X0.8331 Y0.3210 
G01 X0.7969 Y0.3210 
G01 X0.7900 Y0.3141 
G01 X0.7831 Y0.3210 
G01 X0.7773 Y0.3210 
G01 X0.7762 Y0.3221 
G01 X0.7538 Y0.3221 
G01 X0.7162 Y0.3221 
G01 X0.6854 Y0.3529 
G01 X0.8112 Y0.3529 
G01 X0.8271 Y0.3688 
G01 X0.8421 Y0.3838 
G01 X0.8421 Y0.4062 
G01 X0.8421 Y0.4138 
G01 X0.8469 Y0.4090 
G01 X0.8831 Y0.4090 
G01 X0.8879 Y0.4138 
G01 X0.8879 Y0.3738 
G01 X0.9038 Y0.3579 
G01 X0.9829 Y0.2788 
G01 X0.9829 Y0.1088 
G00 Z0.0200 
G00 X0.9140 Y1.1152 
G01 Z-0.0100 F10.00 
G01 X0.9140 Y1.1828 
G01 X0.9051 Y1.1917 
G01 X0.7548 Y1.1917 
G01 X0.7460 Y1.1828 
G01 X0.7460 Y1.1152 
G01 X0.7548 Y1.1064 
G01 X0.9051 Y1.1064 
G01 X0.9140 Y1.1152 
G00 Z0.0200 
G00 X1.1450 Y1.0858 
G01 Z-0.0100 F10.00 
G01 X1.1279 Y1.1029 
G01 X1.1621 Y1.1029 
G01 X1.1450 Y1.0858 
G00 Z0.0200 
G00 X1.2450 Y1.0858 
G01 Z-0.0100 F10.00 
G01 X1.2279 Y1.1029 
G01 X1.2621 Y1.1029 
G01 X1.2450 Y1.0858 
G00 Z0.0200 
G00 X1.3450 Y1.0858 
G01 Z-0.0100 F10.00 
G01 X1.3279 Y1.1029 
G01 X1.3417 Y1.1029 
G01 X1.3519 Y1.0927 
G01 X1.3450 Y1.0858 
G00 Z0.0200 
G00 X0.6269 Y0.8878 
G01 Z-0.0100 F10.00 
G01 X0.6387 Y0.8996 
G01 X0.6387 Y0.9679 
G01 X0.7879 Y0.9679 
G01 X0.7879 Y0.8883 
G01 X0.7879 Y0.8617 
G01 X0.7889 Y0.8607 
G01 X0.7889 Y0.8267 
G01 X0.8007 Y0.8149 
G01 X0.8593 Y0.8149 
G01 X0.8711 Y0.8267 
G01 X0.8711 Y0.9293 
G01 X0.8593 Y0.9411 
G01 X0.8521 Y0.9411 
G01 X0.8521 Y0.9679 
G01 X1.0612 Y0.9679 
G01 X1.0679 Y0.9612 
G01 X1.0679 Y0.8867 
G01 X1.0867 Y0.8679 
G01 X1.1153 Y0.8393 
G01 X1.1153 Y0.8007 
G01 X1.0867 Y0.7721 
G01 X0.9867 Y0.7721 
G01 X0.9679 Y0.7533 
G01 X0.8917 Y0.6771 
G01 X0.8575 Y0.6771 
G01 X0.9577 Y0.7773 
G01 X1.0729 Y0.7773 
G01 X1.0847 Y0.7891 
G01 X1.0847 Y0.8609 
G01 X1.0729 Y0.8726 
G01 X0.9621 Y0.8726 
G01 X0.9621 Y0.9293 
G01 X0.9503 Y0.9411 
G01 X0.8917 Y0.9411 
G01 X0.8799 Y0.9293 
G01 X0.8799 Y0.8267 
G01 X0.8879 Y0.8187 
G01 X0.8879 Y0.8117 
G01 X0.8946 Y0.8050 
G01 X0.8272 Y0.7376 
G01 X0.8272 Y0.8019 
G01 X0.8154 Y0.8137 
G01 X0.7671 Y0.8137 
G01 X0.7671 Y0.8149 
G01 X0.7683 Y0.8149 
G01 X0.7801 Y0.8267 
G01 X0.7801 Y0.9293 
G01 X0.7683 Y0.9411 
G01 X0.7097 Y0.9411 
G01 X0.6979 Y0.9293 
G01 X0.6979 Y0.8267 
G01 X0.7029 Y0.8217 
G01 X0.7029 Y0.8137 
G01 X0.6846 Y0.8137 
G01 X0.6780 Y0.8071 
G01 X0.6533 Y0.8071 
G01 X0.5726 Y0.8878 
G01 X0.6269 Y0.8878 
G00 Z0.0200 
G00 X0.6728 Y0.7429 
G01 Z-0.0100 F10.00 
G01 X0.6728 Y0.7371 
G01 X0.5883 Y0.7371 
G01 X0.5071 Y0.8183 
G01 X0.5071 Y0.8625 
G01 X0.5167 Y0.8529 
G01 X0.6267 Y0.7429 
G01 X0.6533 Y0.7429 
G01 X0.6728 Y0.7429 
G00 Z0.0200 
G00 X0.3191 Y0.6650 
G01 Z-0.0100 F10.00 
G01 X0.3171 Y0.6630 
G01 X0.3171 Y0.6667 
G01 X0.3171 Y0.6670 
G01 X0.3191 Y0.6650 
G00 Z0.0200 
G00 X0.3700 Y0.1442 
G01 Z-0.0100 F10.00 
G01 X0.3871 Y0.1271 
G01 X0.3529 Y0.1271 
G01 X0.3700 Y0.1442 
G00 Z0.0200 
G00 X1.0449 Y1.0745 
G01 Z-0.0100 F10.00 
G01 X1.0449 Y1.0321 
G01 X0.8333 Y1.0321 
G01 X0.8067 Y1.0321 
G01 X0.6370 Y1.0321 
G01 X0.6269 Y1.0422 
G01 X0.5626 Y1.0422 
G01 X0.5633 Y1.0429 
G01 X1.0133 Y1.0429 
G01 X1.0321 Y1.0617 
G01 X1.0449 Y1.0745 
G00 Z0.0200 
G00 X0.4921 Y0.5667 
G01 Z-0.0100 F10.00 
G01 X0.5190 Y0.5936 
G01 X0.5190 Y0.5699 
G01 X0.5238 Y0.5650 
G01 X0.5190 Y0.5601 
G01 X0.5190 Y0.5199 
G01 X0.5238 Y0.5150 
G01 X0.5190 Y0.5101 
G01 X0.5190 Y0.4699 
G01 X0.5238 Y0.4650 
G01 X0.5190 Y0.4601 
G01 X0.5190 Y0.4221 
G01 X0.5117 Y0.4221 
G01 X0.4921 Y0.4025 
G01 X0.4921 Y0.5667 
G00 Z0.0200 
G00 X0.8949 Y0.3260 
G01 Z-0.0100 F10.00 
G01 X0.8900 Y0.3212 
G01 X0.8851 Y0.3260 
G01 X0.8449 Y0.3260 
G01 X0.8400 Y0.3212 
G01 X0.8351 Y0.3260 
G01 X0.7949 Y0.3260 
G01 X0.7900 Y0.3212 
G01 X0.7851 Y0.3260 
G01 X0.7793 Y0.3260 
G01 X0.7783 Y0.3271 
G01 X0.7517 Y0.3271 
G01 X0.7183 Y0.3271 
G01 X0.6975 Y0.3479 
G01 X0.8133 Y0.3479 
G01 X0.8321 Y0.3667 
G01 X0.8471 Y0.3817 
G01 X0.8471 Y0.4040 
G01 X0.8829 Y0.4040 
G01 X0.8829 Y0.3717 
G01 X0.9017 Y0.3529 
G01 X0.9286 Y0.3260 
G01 X0.8949 Y0.3260 
G00 Z0.0200 
G00 X0.7331 Y0.2110 
G01 Z-0.0100 F10.00 
G01 X0.7420 Y0.2021 
G01 X0.7133 Y0.2021 
G01 X0.6075 Y0.3079 
G01 X0.6467 Y0.3079 
G01 X0.6729 Y0.2817 
G01 X0.6917 Y0.2629 
G01 X0.7329 Y0.2629 
G01 X0.7329 Y0.2493 
G01 X0.7331 Y0.2492 
G01 X0.7331 Y0.2110 
G00 Z0.0200 
G00 X0.6458 Y0.3839 
G01 Z-0.0100 F10.00 
G01 X0.6567 Y0.3729 
G01 X0.6567 Y0.3729 
G01 X0.6575 Y0.3721 
G01 X0.6467 Y0.3721 
G01 X0.6458 Y0.3721 
G01 X0.6458 Y0.3839 
G00 Z0.0200 
G00 X0.7367 Y0.0721 
G01 Z-0.0100 F10.00 
G01 X0.4825 Y0.0721 
G01 X0.5253 Y0.1149 
G01 X0.5407 Y0.1149 
G01 X0.5701 Y0.1442 
G01 X0.5701 Y0.2457 
G01 X0.5629 Y0.2529 
G01 X0.5717 Y0.2529 
G01 X0.6679 Y0.1567 
G01 X0.6867 Y0.1379 
G01 X0.7817 Y0.1379 
G01 X0.8025 Y0.1379 
G01 X0.7367 Y0.0721 
G00 Z0.0200 
G00 X1.1059 Y0.0871 
G01 Z-0.0100 F10.00 
G01 X1.0899 Y0.1031 
G01 X1.0723 Y0.1031 
G01 X1.0421 Y0.1333 
G01 X1.0421 Y0.1575 
G01 X1.0979 Y0.1017 
G01 X1.1125 Y0.0871 
G01 X1.1059 Y0.0871 
G00 Z0.0200 
G00 X0.2083 Y0.0721 
G01 Z-0.0100 F10.00 
G01 X0.1241 Y0.1563 
G01 X0.1542 Y0.1563 
G01 X0.2289 Y0.0817 
G01 X0.2385 Y0.0721 
G01 X0.2083 Y0.0721 
G00 Z0.0200 
G00 X0.4279 Y0.3081 
G01 Z-0.0100 F10.00 
G01 X0.4279 Y0.2751 
G01 X0.4203 Y0.2751 
G01 X0.4121 Y0.2833 
G01 X0.4121 Y0.3081 
G01 X0.4279 Y0.3081 
G00 Z0.0200 
G00 X0.3260 Y0.3081 
G01 Z-0.0100 F10.00 
G01 X0.3479 Y0.3081 
G01 X0.3479 Y0.2833 
G01 X0.3479 Y0.2679 
G01 X0.3407 Y0.2751 
G01 X0.3221 Y0.2751 
G01 X0.3221 Y0.3120 
G01 X0.3260 Y0.3081 
G00 Z0.0200 
G00 X0.4410 Y0.6064 
G01 Z-0.0100 F10.00 
G01 X0.4410 Y0.6079 
G01 X0.4425 Y0.6079 
G01 X0.4410 Y0.6064 
G00 Z0.0200 
G00 X0.3106 Y1.0304 
G01 Z-0.0100 F10.00 
G01 X0.3031 Y1.0379 
G01 X0.3117 Y1.0379 
G01 X0.3294 Y1.0202 
G01 X0.3294 Y0.8996 
G01 X0.3412 Y0.8878 
G01 X0.4169 Y0.8878 
G01 X0.4250 Y0.8959 
G01 X0.4331 Y0.8878 
G01 X0.4429 Y0.8878 
G01 X0.4429 Y0.7917 
G01 X0.4617 Y0.7729 
G01 X0.5217 Y0.7129 
G01 X0.5190 Y0.7101 
G01 X0.5190 Y0.6721 
G01 X0.5067 Y0.6721 
G01 X0.4971 Y0.6625 
G01 X0.4971 Y0.7283 
G01 X0.4783 Y0.7471 
G01 X0.4783 Y0.7471 
G01 X0.3106 Y0.9148 
G01 X0.3106 Y1.0304 
G00 Z0.0200 
G00 X0.6458 Y0.6729 
G01 Z-0.0100 F10.00 
G01 X0.6728 Y0.6729 
G01 X0.6728 Y0.6721 
G01 X0.6567 Y0.6721 
G01 X0.6458 Y0.6721 
G01 X0.6458 Y0.6729 
G00 Z0.0200 
G00 X1.3079 Y0.2479 
G01 Z-0.0100 F10.00 
G01 X1.2908 Y0.2650 
G01 X1.2927 Y0.2669 
G01 X1.3079 Y0.2517 
G01 X1.3079 Y0.2479 
G00 Z0.0200 
G00 X1.0379 Y0.3075 
G01 Z-0.0100 F10.00 
G01 X0.9471 Y0.3983 
G01 X0.9471 Y0.4807 
G01 X0.9469 Y0.4808 
G01 X0.9469 Y0.5190 
G01 X0.9351 Y0.5308 
G01 X0.8949 Y0.5308 
G01 X0.8900 Y0.5259 
G01 X0.8851 Y0.5308 
G01 X0.8449 Y0.5308 
G01 X0.8400 Y0.5259 
G01 X0.8351 Y0.5308 
G01 X0.8011 Y0.5308 
G01 X0.8133 Y0.5429 
G01 X1.0379 Y0.5429 
G01 X1.0379 Y0.3075 
G00 Z0.0200 
G00 X1.1892 Y0.4651 
G01 Z-0.0100 F10.00 
G01 X1.1621 Y0.4379 
G01 X1.1621 Y0.4517 
G01 X1.3383 Y0.6279 
G01 X1.3479 Y0.6375 
G01 X1.3479 Y0.5683 
G01 X1.2447 Y0.4651 
G01 X1.1892 Y0.4651 
G00 Z0.0200 
G00 X1.3979 Y0.1383 
G01 Z-0.0100 F10.00 
G01 X1.3467 Y0.0871 
G01 X1.3175 Y0.0871 
G01 X1.3533 Y0.1229 
G01 X1.3721 Y0.1417 
G01 X1.3721 Y0.2517 
G01 X1.3721 Y0.2783 
G01 X1.3201 Y0.3303 
G01 X1.3201 Y0.3357 
G01 X1.2908 Y0.3650 
G01 X1.3201 Y0.3942 
G01 X1.3201 Y0.4357 
G01 X1.3131 Y0.4427 
G01 X1.3979 Y0.5275 
G01 X1.3979 Y0.1383 
G00 Z0.0200 
G00 X1.3979 Y0.9549 
G01 Z-0.0100 F10.00 
G01 X1.3979 Y0.9425 
G01 X1.3855 Y0.9549 
G01 X1.3979 Y0.9549 
G00 Z0.0200 
G00 X1.1021 Y0.5617 
G01 Z-0.0100 F10.00 
G01 X1.1021 Y0.5883 
G01 X1.1021 Y0.6191 
G01 X1.1181 Y0.6351 
G01 X1.1181 Y0.6749 
G01 X1.0899 Y0.7031 
G01 X1.0501 Y0.7031 
G01 X1.0219 Y0.6749 
G01 X1.0219 Y0.6351 
G01 X1.0379 Y0.6191 
G01 X1.0379 Y0.6071 
G01 X0.8262 Y0.6071 
G01 X0.8272 Y0.6081 
G01 X0.8272 Y0.6129 
G01 X0.8917 Y0.6129 
G01 X0.9183 Y0.6129 
G01 X1.0133 Y0.7079 
G01 X1.0867 Y0.7079 
G01 X1.1133 Y0.7079 
G01 X1.1827 Y0.7773 
G01 X1.2619 Y0.7773 
G01 X1.2736 Y0.7891 
G01 X1.2736 Y0.8609 
G01 X1.2619 Y0.8726 
G01 X1.1727 Y0.8726 
G01 X1.1321 Y0.9133 
G01 X1.1321 Y0.9712 
G01 X1.1450 Y0.9842 
G01 X1.1742 Y0.9549 
G01 X1.2047 Y0.9549 
G01 X1.2929 Y0.8667 
G01 X1.2929 Y0.6733 
G01 X1.1021 Y0.4825 
G01 X1.1021 Y0.5617 
G00 Z0.0200 
G00 X1.1892 Y0.3650 
G01 Z-0.0100 F10.00 
G01 X1.1621 Y0.3379 
G01 X1.1621 Y0.3921 
G01 X1.1892 Y0.3650 
G00 Z0.0200 
G00 X1.1599 Y0.1942 
G01 Z-0.0100 F10.00 
G01 X1.1892 Y0.1649 
G01 X1.2907 Y0.1649 
G01 X1.3079 Y0.1821 
G01 X1.3079 Y0.1683 
G01 X1.2867 Y0.1471 
G01 X1.1433 Y0.1471 
G01 X1.1021 Y0.1883 
G01 X1.1021 Y0.2675 
G01 X1.1167 Y0.2529 
G01 X1.1167 Y0.2529 
G01 X1.1599 Y0.2097 
G01 X1.1599 Y0.1942 
G00 Z0.0200 
G00 X0.7329 Y0.4541 
G01 Z-0.0100 F10.00 
G01 X0.7331 Y0.4539 
G01 X0.7331 Y0.4157 
G01 X0.7367 Y0.4121 
G01 X0.7083 Y0.4121 
G01 X0.7021 Y0.4183 
G01 X0.7021 Y0.5963 
G01 X0.7759 Y0.5963 
G01 X0.7679 Y0.5883 
G01 X0.7329 Y0.5533 
G01 X0.7329 Y0.5267 
G01 X0.7329 Y0.4541 
G00 Z0.0200 
G00 X0.2572 Y0.6074 
G01 Z-0.0100 F10.00 
G01 X0.2717 Y0.5929 
G01 X0.2925 Y0.5721 
G01 X0.2883 Y0.5721 
G01 X0.2633 Y0.5971 
G01 X0.2630 Y0.5971 
G01 X0.2572 Y0.6027 
G01 X0.2572 Y0.6074 
G00 Z0.0200 
G00 X0.2572 Y0.2862 
G01 Z-0.0100 F10.00 
G01 X0.2572 Y0.3568 
G01 X0.2579 Y0.3575 
G01 X0.2579 Y0.2483 
G01 X0.2579 Y0.2243 
G01 X0.2579 Y0.2217 
G01 X0.2657 Y0.2139 
G01 X0.2699 Y0.2083 
G01 X0.2699 Y0.1442 
G01 X0.2871 Y0.1271 
G01 X0.2742 Y0.1271 
G01 X0.2450 Y0.1563 
G01 X0.2454 Y0.1563 
G01 X0.2572 Y0.1681 
G01 X0.2572 Y0.2438 
G01 X0.2454 Y0.2556 
G01 X0.1146 Y0.2556 
G01 X0.1028 Y0.2438 
G01 X0.1028 Y0.1776 
G01 X0.1021 Y0.1783 
G01 X0.1021 Y0.9767 
G01 X0.1633 Y1.0379 
G01 X0.2188 Y1.0379 
G01 X0.2113 Y1.0304 
G01 X0.2113 Y0.8996 
G01 X0.2231 Y0.8878 
G01 X0.2468 Y0.8878 
G01 X0.4127 Y0.7219 
G01 X0.3911 Y0.7219 
G01 X0.2847 Y0.8283 
G01 X0.2659 Y0.8471 
G01 X0.2572 Y0.8471 
G01 X0.2572 Y0.8619 
G01 X0.2454 Y0.8737 
G01 X0.1146 Y0.8737 
G01 X0.1028 Y0.8619 
G01 X0.1028 Y0.7862 
G01 X0.1146 Y0.7744 
G01 X0.2454 Y0.7744 
G01 X0.2466 Y0.7756 
G01 X0.3142 Y0.7080 
G01 X0.3142 Y0.6961 
G01 X0.2971 Y0.7133 
G01 X0.2783 Y0.7321 
G01 X0.2572 Y0.7321 
G01 X0.2572 Y0.7438 
G01 X0.2454 Y0.7556 
G01 X0.1146 Y0.7556 
G01 X0.1028 Y0.7438 
G01 X0.1028 Y0.6681 
G01 X0.1146 Y0.6563 
G01 X0.2454 Y0.6563 
G01 X0.2529 Y0.6638 
G01 X0.2529 Y0.6462 
G01 X0.2454 Y0.6537 
G01 X0.1146 Y0.6537 
G01 X0.1028 Y0.6419 
G01 X0.1028 Y0.5662 
G01 X0.1146 Y0.5544 
G01 X0.2148 Y0.5544 
G01 X0.2275 Y0.5422 
G01 X0.2341 Y0.5356 
G01 X0.1146 Y0.5356 
G01 X0.1028 Y0.5238 
G01 X0.1028 Y0.4481 
G01 X0.1146 Y0.4363 
G01 X0.2454 Y0.4363 
G01 X0.2572 Y0.4481 
G01 X0.2572 Y0.4579 
G01 X0.2675 Y0.4579 
G01 X0.1833 Y0.3737 
G01 X0.1146 Y0.3737 
G01 X0.1028 Y0.3619 
G01 X0.1028 Y0.2862 
G01 X0.1146 Y0.2744 
G01 X0.2454 Y0.2744 
G01 X0.2572 Y0.2862 
G00 Z0.0200 
G00 X0.9190 Y1.1131 
G01 Z-0.0100 F10.00 
G01 X0.9190 Y1.1849 
G01 X0.9072 Y1.1967 
G01 X0.7528 Y1.1967 
G01 X0.7410 Y1.1849 
G01 X0.7410 Y1.1131 
G01 X0.7470 Y1.1071 
G01 X0.5367 Y1.1071 
G01 X0.5179 Y1.0883 
G01 X0.4979 Y1.0683 
G01 X0.4979 Y1.0422 
G01 X0.4331 Y1.0422 
G01 X0.4250 Y1.0341 
G01 X0.4169 Y1.0422 
G01 X0.3971 Y1.0422 
G01 X0.3971 Y1.0433 
G01 X0.3571 Y1.0833 
G01 X0.3383 Y1.1021 
G01 X0.1633 Y1.1021 
G01 X0.1367 Y1.1021 
G01 X0.0567 Y1.0221 
G01 X0.0379 Y1.0033 
G01 X0.0379 Y0.1783 
G01 X0.0379 Y0.1517 
G01 X0.1629 Y0.0267 
G01 X0.1817 Y0.0079 
G01 X0.7633 Y0.0079 
G01 X0.7821 Y0.0267 
G01 X0.7821 Y0.0267 
G01 X0.8783 Y0.1229 
G01 X0.8783 Y0.1229 
G01 X0.8971 Y0.1417 
G01 X0.8971 Y0.1992 
G01 X0.9351 Y0.1992 
G01 X0.9469 Y0.2110 
G01 X0.9469 Y0.2591 
G01 X0.9471 Y0.2605 
G01 X0.9471 Y0.2759 
G01 X0.9469 Y0.2761 
G01 X0.9469 Y0.3077 
G01 X0.9779 Y0.2767 
G01 X0.9779 Y0.1067 
G01 X0.9967 Y0.0879 
G01 X1.0219 Y0.0627 
G01 X1.0219 Y0.0351 
G01 X1.0501 Y0.0069 
G01 X1.0899 Y0.0069 
G01 X1.1059 Y0.0229 
G01 X1.3733 Y0.0229 
G01 X1.3921 Y0.0417 
G01 X1.4621 Y0.1117 
G01 X1.4621 Y0.1383 
G01 X1.4621 Y0.9783 
G01 X1.4564 Y0.9840 
G01 X1.4451 Y1.0066 
G01 X1.4451 Y1.0857 
G01 X1.4271 Y1.1037 
G01 X1.4271 Y1.1083 
G01 X1.4083 Y1.1271 
G01 X1.3683 Y1.1671 
G01 X1.3417 Y1.1671 
G01 X1.0733 Y1.1671 
G01 X1.0467 Y1.1671 
G01 X0.9867 Y1.1071 
G01 X0.9130 Y1.1071 
G01 X0.9190 Y1.1131 
G00 Z0.0200 
G00 X1.0797 Y0.7771 
G01 Z-0.0100 F10.00 
G01 X1.0897 Y0.7870 
G01 X1.0897 Y0.8579 
G01 X1.1103 Y0.8372 
G01 X1.1103 Y0.8028 
G01 X1.0846 Y0.7771 
G01 X1.0797 Y0.7771 
G00 Z0.0200 
G00 X0.5904 Y0.7421 
G01 Z-0.0100 F10.00 
G01 X0.5121 Y0.8204 
G01 X0.5121 Y0.8505 
G01 X0.5146 Y0.8479 
G01 X0.6205 Y0.7421 
G01 X0.5904 Y0.7421 
G00 Z0.0200 
G00 X0.6290 Y0.8828 
G01 Z-0.0100 F10.00 
G01 X0.6437 Y0.8975 
G01 X0.6437 Y0.9629 
G01 X0.7829 Y0.9629 
G01 X0.7829 Y0.9336 
G01 X0.7704 Y0.9461 
G01 X0.7076 Y0.9461 
G01 X0.6929 Y0.9314 
G01 X0.6929 Y0.8246 
G01 X0.6979 Y0.8196 
G01 X0.6979 Y0.8187 
G01 X0.6825 Y0.8187 
G01 X0.6759 Y0.8121 
G01 X0.6554 Y0.8121 
G01 X0.5846 Y0.8828 
G01 X0.6290 Y0.8828 
G00 Z0.0200 
G00 X0.8928 Y0.3310 
G01 Z-0.0100 F10.00 
G01 X0.8900 Y0.3282 
G01 X0.8872 Y0.3310 
G01 X0.8428 Y0.3310 
G01 X0.8400 Y0.3282 
G01 X0.8372 Y0.3310 
G01 X0.7928 Y0.3310 
G01 X0.7900 Y0.3282 
G01 X0.7872 Y0.3310 
G01 X0.7814 Y0.3310 
G01 X0.7804 Y0.3321 
G01 X0.7496 Y0.3321 
G01 X0.7204 Y0.3321 
G01 X0.7095 Y0.3429 
G01 X0.8154 Y0.3429 
G01 X0.8371 Y0.3646 
G01 X0.8521 Y0.3796 
G01 X0.8521 Y0.3990 
G01 X0.8779 Y0.3990 
G01 X0.8779 Y0.3696 
G01 X0.8996 Y0.3479 
G01 X0.9165 Y0.3310 
G01 X0.8928 Y0.3310 
G00 Z0.0200 
G00 X0.7281 Y0.2089 
G01 Z-0.0100 F10.00 
G01 X0.7299 Y0.2071 
G01 X0.7154 Y0.2071 
G01 X0.6195 Y0.3029 
G01 X0.6446 Y0.3029 
G01 X0.6679 Y0.2796 
G01 X0.6896 Y0.2579 
G01 X0.7279 Y0.2579 
G01 X0.7279 Y0.2473 
G01 X0.7281 Y0.2471 
G01 X0.7281 Y0.2089 
G00 Z0.0200 
G00 X0.7346 Y0.0771 
G01 Z-0.0100 F10.00 
G01 X0.4945 Y0.0771 
G01 X0.5274 Y0.1099 
G01 X0.5428 Y0.1099 
G01 X0.5751 Y0.1422 
G01 X0.5751 Y0.2425 
G01 X0.6629 Y0.1546 
G01 X0.6846 Y0.1329 
G01 X0.7796 Y0.1329 
G01 X0.7905 Y0.1329 
G01 X0.7346 Y0.0771 
G00 Z0.0200 
G00 X0.4971 Y0.5646 
G01 Z-0.0100 F10.00 
G01 X0.5140 Y0.5815 
G01 X0.5140 Y0.5678 
G01 X0.5168 Y0.5650 
G01 X0.5140 Y0.5622 
G01 X0.5140 Y0.5178 
G01 X0.5168 Y0.5150 
G01 X0.5140 Y0.5122 
G01 X0.5140 Y0.4678 
G01 X0.5168 Y0.4650 
G01 X0.5140 Y0.4622 
G01 X0.5140 Y0.4271 
G01 X0.5096 Y0.4271 
G01 X0.4971 Y0.4145 
G01 X0.4971 Y0.5646 
G00 Z0.0200 
G00 X0.7279 Y0.4520 
G01 Z-0.0100 F10.00 
G01 X0.7281 Y0.4518 
G01 X0.7281 Y0.4171 
G01 X0.7104 Y0.4171 
G01 X0.7071 Y0.4204 
G01 X0.7071 Y0.5913 
G01 X0.7639 Y0.5913 
G01 X0.7629 Y0.5904 
G01 X0.7279 Y0.5554 
G01 X0.7279 Y0.5246 
G01 X0.7279 Y0.4520 
G00 Z0.0200 
G00 X0.9521 Y0.4004 
G01 Z-0.0100 F10.00 
G01 X0.9521 Y0.4827 
G01 X0.9519 Y0.4829 
G01 X0.9519 Y0.5211 
G01 X0.9372 Y0.5358 
G01 X0.8928 Y0.5358 
G01 X0.8900 Y0.5330 
G01 X0.8872 Y0.5358 
G01 X0.8428 Y0.5358 
G01 X0.8400 Y0.5330 
G01 X0.8372 Y0.5358 
G01 X0.8132 Y0.5358 
G01 X0.8154 Y0.5379 
G01 X1.0329 Y0.5379 
G01 X1.0329 Y0.3195 
G01 X0.9521 Y0.4004 
G00 Z0.0200 
G00 X1.0154 Y0.7029 
G01 Z-0.0100 F10.00 
G01 X1.0428 Y0.7029 
G01 X1.0169 Y0.6770 
G01 X1.0169 Y0.6330 
G01 X1.0329 Y0.6170 
G01 X1.0329 Y0.6121 
G01 X0.9245 Y0.6121 
G01 X1.0154 Y0.7029 
G00 Z0.0200 
G00 X1.0744 Y0.1081 
G01 Z-0.0100 F10.00 
G01 X1.0471 Y0.1354 
G01 X1.0471 Y0.1455 
G01 X1.0845 Y0.1081 
G01 X1.0744 Y0.1081 
G00 Z0.0200 
G00 X1.0399 Y1.0625 
G01 Z-0.0100 F10.00 
G01 X1.0399 Y1.0371 
G01 X0.8354 Y1.0371 
G01 X0.8046 Y1.0371 
G01 X0.6391 Y1.0371 
G01 X0.6382 Y1.0379 
G01 X1.0154 Y1.0379 
G01 X1.0371 Y1.0596 
G01 X1.0399 Y1.0625 
G00 Z0.0200 
G00 X1.2450 Y1.0929 
G01 Z-0.0100 F10.00 
G01 X1.2400 Y1.0979 
G01 X1.2500 Y1.0979 
G01 X1.2450 Y1.0929 
G00 Z0.0200 
G00 X1.1450 Y1.0929 
G01 Z-0.0100 F10.00 
G01 X1.1400 Y1.0979 
G01 X1.1500 Y1.0979 
G01 X1.1450 Y1.0929 
G00 Z0.0200 
G00 X1.1549 Y0.1922 
G01 Z-0.0100 F10.00 
G01 X1.1872 Y0.1599 
G01 X1.2925 Y0.1599 
G01 X1.2846 Y0.1521 
G01 X1.1454 Y0.1521 
G01 X1.1071 Y0.1904 
G01 X1.1071 Y0.2555 
G01 X1.1146 Y0.2479 
G01 X1.1146 Y0.2479 
G01 X1.1549 Y0.2076 
G01 X1.1549 Y0.1922 
G00 Z0.0200 
G00 X1.1821 Y0.3650 
G01 Z-0.0100 F10.00 
G01 X1.1671 Y0.3500 
G01 X1.1671 Y0.3800 
G01 X1.1821 Y0.3650 
G00 Z0.0200 
G00 X1.1071 Y0.5596 
G01 Z-0.0100 F10.00 
G01 X1.1071 Y0.5904 
G01 X1.1071 Y0.6170 
G01 X1.1231 Y0.6330 
G01 X1.1231 Y0.6770 
G01 X1.0972 Y0.7029 
G01 X1.1154 Y0.7029 
G01 X1.1848 Y0.7723 
G01 X1.2639 Y0.7723 
G01 X1.2786 Y0.7870 
G01 X1.2786 Y0.8630 
G01 X1.2639 Y0.8776 
G01 X1.1748 Y0.8776 
G01 X1.1371 Y0.9154 
G01 X1.1371 Y0.9692 
G01 X1.1450 Y0.9771 
G01 X1.1722 Y0.9499 
G01 X1.2026 Y0.9499 
G01 X1.2879 Y0.8646 
G01 X1.2879 Y0.6754 
G01 X1.1071 Y0.4945 
G01 X1.1071 Y0.5596 
G00 Z0.0200 
G00 X1.1875 Y0.4701 
G01 Z-0.0100 F10.00 
G01 X1.3404 Y0.6229 
G01 X1.3429 Y0.6255 
G01 X1.3429 Y0.5704 
G01 X1.2426 Y0.4701 
G01 X1.1875 Y0.4701 
G00 Z0.0200 
G00 X1.3929 Y0.1404 
G01 Z-0.0100 F10.00 
G01 X1.3446 Y0.0921 
G01 X1.3295 Y0.0921 
G01 X1.3554 Y0.1179 
G01 X1.3771 Y0.1396 
G01 X1.3771 Y0.2496 
G01 X1.3771 Y0.2804 
G01 X1.3251 Y0.3324 
G01 X1.3251 Y0.3378 
G01 X1.2979 Y0.3650 
G01 X1.3251 Y0.3922 
G01 X1.3251 Y0.4378 
G01 X1.3202 Y0.4427 
G01 X1.3929 Y0.5155 
G01 X1.3929 Y0.1404 
G00 Z0.0200 
G00 X1.0629 Y0.9592 
G01 Z-0.0100 F10.00 
G01 X1.0629 Y0.8846 
G01 X1.0699 Y0.8776 
G01 X0.9671 Y0.8776 
G01 X0.9671 Y0.9314 
G01 X0.9524 Y0.9461 
G01 X0.8896 Y0.9461 
G01 X0.8755 Y0.9320 
G01 X0.8614 Y0.9461 
G01 X0.8571 Y0.9461 
G01 X0.8571 Y0.9629 
G01 X1.0592 Y0.9629 
G01 X1.0629 Y0.9592 
G00 Z0.0200 
G00 X0.8695 Y0.6821 
G01 Z-0.0100 F10.00 
G01 X0.9598 Y0.7723 
G01 X0.9799 Y0.7723 
G01 X0.9629 Y0.7554 
G01 X0.8896 Y0.6821 
G01 X0.8695 Y0.6821 
G00 Z0.0200 
G00 X0.7845 Y0.8240 
G01 Z-0.0100 F10.00 
G01 X0.7898 Y0.8187 
G01 X0.7791 Y0.8187 
G01 X0.7845 Y0.8240 
G00 Z0.0200 
G00 X0.5146 Y0.7129 
G01 Z-0.0100 F10.00 
G01 X0.5140 Y0.7122 
G01 X0.5140 Y0.6771 
G01 X0.5046 Y0.6771 
G01 X0.5021 Y0.6745 
G01 X0.5021 Y0.7255 
G01 X0.5146 Y0.7129 
G00 Z0.0200 
G00 X0.1125 Y0.3787 
G01 Z-0.0100 F10.00 
G01 X0.1071 Y0.3732 
G01 X0.1071 Y0.4368 
G01 X0.1125 Y0.4313 
G01 X0.2339 Y0.4313 
G01 X0.1812 Y0.3787 
G01 X0.1125 Y0.3787 
G00 Z0.0200 
G00 X0.1125 Y0.5406 
G01 Z-0.0100 F10.00 
G01 X0.1071 Y0.5351 
G01 X0.1071 Y0.5549 
G01 X0.1125 Y0.5494 
G01 X0.2128 Y0.5494 
G01 X0.2219 Y0.5406 
G01 X0.1125 Y0.5406 
G00 Z0.0200 
G00 X0.2622 Y0.8640 
G01 Z-0.0100 F10.00 
G01 X0.2475 Y0.8787 
G01 X0.1125 Y0.8787 
G01 X0.1071 Y0.8732 
G01 X0.1071 Y0.9746 
G01 X0.1654 Y1.0329 
G01 X0.2068 Y1.0329 
G01 X0.2063 Y1.0325 
G01 X0.2063 Y0.8975 
G01 X0.2210 Y0.8828 
G01 X0.2447 Y0.8828 
G01 X0.4006 Y0.7269 
G01 X0.3932 Y0.7269 
G01 X0.2897 Y0.8304 
G01 X0.2680 Y0.8521 
G01 X0.2622 Y0.8521 
G01 X0.2622 Y0.8640 
G00 Z0.0200 
G00 X0.2622 Y0.7371 
G01 Z-0.0100 F10.00 
G01 X0.2622 Y0.7459 
G01 X0.2475 Y0.7606 
G01 X0.1125 Y0.7606 
G01 X0.1071 Y0.7551 
G01 X0.1071 Y0.7749 
G01 X0.1125 Y0.7694 
G01 X0.2457 Y0.7694 
G01 X0.2781 Y0.7371 
G01 X0.2622 Y0.7371 
G00 Z0.0200 
G00 X0.3156 Y1.0270 
G01 Z-0.0100 F10.00 
G01 X0.3244 Y1.0181 
G01 X0.3244 Y0.9080 
G01 X0.3156 Y0.9169 
G01 X0.3156 Y1.0270 
G00 Z0.0200 
G00 X0.4190 Y0.8828 
G01 Z-0.0100 F10.00 
G01 X0.4250 Y0.8888 
G01 X0.4310 Y0.8828 
G01 X0.4379 Y0.8828 
G01 X0.4379 Y0.7945 
G01 X0.3496 Y0.8828 
G01 X0.4190 Y0.8828 
G00 Z0.0200 
G00 X0.2475 Y0.2606 
G01 Z-0.0100 F10.00 
G01 X0.1125 Y0.2606 
G01 X0.1071 Y0.2551 
G01 X0.1071 Y0.2749 
G01 X0.1125 Y0.2694 
G01 X0.2475 Y0.2694 
G01 X0.2529 Y0.2749 
G01 X0.2529 Y0.2551 
G01 X0.2475 Y0.2606 
G00 Z0.0200 
G00 X0.2649 Y0.1435 
G01 Z-0.0100 F10.00 
G01 X0.2523 Y0.1561 
G01 X0.2622 Y0.1660 
G01 X0.2622 Y0.2103 
G01 X0.2649 Y0.2066 
G01 X0.2649 Y0.1435 
G00 Z0.0200 
G00 X0.3428 Y0.2801 
G01 Z-0.0100 F10.00 
G01 X0.3271 Y0.2801 
G01 X0.3271 Y0.3031 
G01 X0.3429 Y0.3031 
G01 X0.3429 Y0.2854 
G01 X0.3429 Y0.2800 
G01 X0.3428 Y0.2801 
G00 Z0.0200 
G00 X0.4229 Y0.3031 
G01 Z-0.0100 F10.00 
G01 X0.4229 Y0.2801 
G01 X0.4224 Y0.2801 
G01 X0.4171 Y0.2854 
G01 X0.4171 Y0.3031 
G01 X0.4229 Y0.3031 
G00 Z0.0200 
G00 X0.1088 Y0.6550 
G01 Z-0.0100 F10.00 
G01 X0.1071 Y0.6532 
G01 X0.1071 Y0.6568 
G01 X0.1088 Y0.6550 
G00 Z0.0200 
G00 X0.2104 Y0.0771 
G01 Z-0.0100 F10.00 
G01 X0.1361 Y0.1513 
G01 X0.1522 Y0.1513 
G01 X0.2239 Y0.0796 
G01 X0.2264 Y0.0771 
G01 X0.2104 Y0.0771 
G00 Z0.0200 
G00 X0.3700 Y0.1371 
G01 Z-0.0100 F10.00 
G01 X0.3750 Y0.1321 
G01 X0.3650 Y0.1321 
G01 X0.3700 Y0.1371 
G00 Z0.0200 
G00 X0.8322 Y0.8040 
G01 Z-0.0100 F10.00 
G01 X0.8262 Y0.8099 
G01 X0.8614 Y0.8099 
G01 X0.8755 Y0.8240 
G01 X0.8829 Y0.8166 
G01 X0.8829 Y0.8096 
G01 X0.8875 Y0.8050 
G01 X0.8322 Y0.7496 
G01 X0.8322 Y0.8040 
G00 Z0.0200 
G00 X0.9729 Y0.1046 
G01 Z-0.0100 F10.00 
G01 X0.9946 Y0.0829 
G01 X1.0169 Y0.0606 
G01 X1.0169 Y0.0330 
G01 X1.0480 Y0.0019 
G01 X1.0920 Y0.0019 
G01 X1.1080 Y0.0179 
G01 X1.3754 Y0.0179 
G01 X1.3971 Y0.0396 
G01 X1.4671 Y0.1096 
G01 X1.4671 Y0.1404 
G01 X1.4671 Y0.9804 
G01 X1.4605 Y0.9870 
G01 X1.4501 Y1.0077 
G01 X1.4501 Y1.0878 
G01 X1.4321 Y1.1058 
G01 X1.4321 Y1.1104 
G01 X1.4104 Y1.1321 
G01 X1.3704 Y1.1721 
G01 X1.3396 Y1.1721 
G01 X1.0754 Y1.1721 
G01 X1.0446 Y1.1721 
G01 X0.9846 Y1.1121 
G01 X0.9240 Y1.1121 
G01 X0.9240 Y1.1870 
G01 X0.9093 Y1.2017 
G01 X0.7507 Y1.2017 
G01 X0.7360 Y1.1870 
G01 X0.7360 Y1.1121 
G01 X0.5346 Y1.1121 
G01 X0.5129 Y1.0904 
G01 X0.4929 Y1.0704 
G01 X0.4929 Y1.0472 
G01 X0.4310 Y1.0472 
G01 X0.4250 Y1.0412 
G01 X0.4190 Y1.0472 
G01 X0.4003 Y1.0472 
G01 X0.3621 Y1.0854 
G01 X0.3404 Y1.1071 
G01 X0.1654 Y1.1071 
G01 X0.1346 Y1.1071 
G01 X0.0546 Y1.0271 
G01 X0.0329 Y1.0054 
G01 X0.0329 Y0.1804 
G01 X0.0329 Y0.1496 
G01 X0.1579 Y0.0246 
G01 X0.1796 Y0.0029 
G01 X0.7654 Y0.0029 
G01 X0.7871 Y0.0246 
G01 X0.7871 Y0.0246 
G01 X0.8804 Y0.1179 
G01 X0.8804 Y0.1179 
G01 X0.9021 Y0.1396 
G01 X0.9021 Y0.1942 
G01 X0.9372 Y0.1942 
G01 X0.9519 Y0.2089 
G01 X0.9519 Y0.2588 
G01 X0.9521 Y0.2602 
G01 X0.9521 Y0.2780 
G01 X0.9519 Y0.2782 
G01 X0.9519 Y0.2956 
G01 X0.9729 Y0.2746 
G01 X0.9729 Y0.1046 
G00 Z0.0200 
G00 X0.2013 Y0.8954 
G01 Z-0.0100 F10.00 
G01 X0.2131 Y0.8837 
G01 X0.1121 Y0.8837 
G01 X0.1121 Y0.9726 
G01 X0.1674 Y1.0279 
G01 X0.2013 Y1.0279 
G01 X0.2013 Y0.8954 
G00 Z0.0200 
G00 X0.8816 Y0.6871 
G01 Z-0.0100 F10.00 
G01 X0.9619 Y0.7673 
G01 X0.9678 Y0.7673 
G01 X0.9579 Y0.7574 
G01 X0.8876 Y0.6871 
G01 X0.8816 Y0.6871 
G00 Z0.0200 
G00 X1.0579 Y0.9571 
G01 Z-0.0100 F10.00 
G01 X1.0579 Y0.8826 
G01 X0.9721 Y0.8826 
G01 X0.9721 Y0.9334 
G01 X0.9545 Y0.9511 
G01 X0.8875 Y0.9511 
G01 X0.8755 Y0.9390 
G01 X0.8635 Y0.9511 
G01 X0.8621 Y0.9511 
G01 X0.8621 Y0.9579 
G01 X1.0571 Y0.9579 
G01 X1.0579 Y0.9571 
G00 Z0.0200 
G00 X0.8372 Y0.8049 
G01 Z-0.0100 F10.00 
G01 X0.8635 Y0.8049 
G01 X0.8755 Y0.8169 
G01 X0.8779 Y0.8145 
G01 X0.8779 Y0.8076 
G01 X0.8805 Y0.8050 
G01 X0.8372 Y0.7617 
G01 X0.8372 Y0.8049 
G00 Z0.0200 
G00 X0.2124 Y0.0821 
G01 Z-0.0100 F10.00 
G01 X0.1482 Y0.1463 
G01 X0.1501 Y0.1463 
G01 X0.2143 Y0.0821 
G01 X0.2124 Y0.0821 
G00 Z0.0200 
G00 X0.2599 Y0.1567 
G01 Z-0.0100 F10.00 
G01 X0.2599 Y0.1556 
G01 X0.2593 Y0.1561 
G01 X0.2599 Y0.1567 
G00 Z0.0200 
G00 X0.7725 Y0.9511 
G01 Z-0.0100 F10.00 
G01 X0.7055 Y0.9511 
G01 X0.6879 Y0.9335 
G01 X0.6879 Y0.8237 
G01 X0.6804 Y0.8237 
G01 X0.6739 Y0.8171 
G01 X0.6574 Y0.8171 
G01 X0.5967 Y0.8778 
G01 X0.6310 Y0.8778 
G01 X0.6487 Y0.8954 
G01 X0.6487 Y0.9579 
G01 X0.7779 Y0.9579 
G01 X0.7779 Y0.9457 
G01 X0.7725 Y0.9511 
G00 Z0.0200 
G00 X0.5924 Y0.7471 
G01 Z-0.0100 F10.00 
G01 X0.5171 Y0.8224 
G01 X0.5171 Y0.8384 
G01 X0.6084 Y0.7471 
G01 X0.5924 Y0.7471 
G00 Z0.0200 
G00 X0.3321 Y0.2851 
G01 Z-0.0100 F10.00 
G01 X0.3321 Y0.2981 
G01 X0.3379 Y0.2981 
G01 X0.3379 Y0.2874 
G01 X0.3379 Y0.2851 
G01 X0.3321 Y0.2851 
G00 Z0.0200 
G00 X0.4210 Y0.8778 
G01 Z-0.0100 F10.00 
G01 X0.4250 Y0.8818 
G01 X0.4289 Y0.8778 
G01 X0.4329 Y0.8778 
G01 X0.4329 Y0.8066 
G01 X0.3617 Y0.8778 
G01 X0.4210 Y0.8778 
G00 Z0.0200 
G00 X0.1121 Y0.3837 
G01 Z-0.0100 F10.00 
G01 X0.1121 Y0.4263 
G01 X0.2218 Y0.4263 
G01 X0.1791 Y0.3837 
G01 X0.1121 Y0.3837 
G00 Z0.0200 
G00 X0.5090 Y0.7115 
G01 Z-0.0100 F10.00 
G01 X0.5090 Y0.6821 
G01 X0.5071 Y0.6821 
G01 X0.5071 Y0.7134 
G01 X0.5090 Y0.7115 
G00 Z0.0200 
G00 X1.0947 Y0.8458 
G01 Z-0.0100 F10.00 
G01 X1.1053 Y0.8351 
G01 X1.1053 Y0.8049 
G01 X1.0947 Y0.7942 
G01 X1.0947 Y0.8458 
G00 Z0.0200 
G00 X1.1499 Y0.1901 
G01 Z-0.0100 F10.00 
G01 X1.1829 Y0.1571 
G01 X1.1474 Y0.1571 
G01 X1.1121 Y0.1924 
G01 X1.1121 Y0.2434 
G01 X1.1126 Y0.2429 
G01 X1.1126 Y0.2429 
G01 X1.1499 Y0.2056 
G01 X1.1499 Y0.1901 
G00 Z0.0200 
G00 X1.1281 Y0.6309 
G01 Z-0.0100 F10.00 
G01 X1.1281 Y0.6791 
G01 X1.1092 Y0.6979 
G01 X1.1174 Y0.6979 
G01 X1.1869 Y0.7673 
G01 X1.2660 Y0.7673 
G01 X1.2829 Y0.7842 
G01 X1.2829 Y0.6774 
G01 X1.1121 Y0.5066 
G01 X1.1121 Y0.5576 
G01 X1.1121 Y0.5924 
G01 X1.1121 Y0.6149 
G01 X1.1281 Y0.6309 
G00 Z0.0200 
G00 X1.3879 Y0.1424 
G01 Z-0.0100 F10.00 
G01 X1.3426 Y0.0971 
G01 X1.3416 Y0.0971 
G01 X1.3574 Y0.1129 
G01 X1.3821 Y0.1376 
G01 X1.3821 Y0.2476 
G01 X1.3821 Y0.2824 
G01 X1.3301 Y0.3344 
G01 X1.3301 Y0.3399 
G01 X1.3050 Y0.3650 
G01 X1.3301 Y0.3901 
G01 X1.3301 Y0.4399 
G01 X1.3273 Y0.4427 
G01 X1.3879 Y0.5034 
G01 X1.3879 Y0.1424 
G00 Z0.0200 
G00 X1.1996 Y0.4751 
G01 Z-0.0100 F10.00 
G01 X1.3379 Y0.6134 
G01 X1.3379 Y0.5724 
G01 X1.2406 Y0.4751 
G01 X1.1996 Y0.4751 
G00 Z0.0200 
G00 X1.1769 Y0.8826 
G01 Z-0.0100 F10.00 
G01 X1.1421 Y0.9174 
G01 X1.1421 Y0.9671 
G01 X1.1450 Y0.9700 
G01 X1.1701 Y0.9449 
G01 X1.2006 Y0.9449 
G01 X1.2628 Y0.8826 
G01 X1.1769 Y0.8826 
G00 Z0.0200 
G00 X1.1750 Y0.3650 
G01 Z-0.0100 F10.00 
G01 X1.1721 Y0.3621 
G01 X1.1721 Y0.3679 
G01 X1.1750 Y0.3650 
G00 Z0.0200 
G00 X1.0174 Y0.6979 
G01 Z-0.0100 F10.00 
G01 X1.0308 Y0.6979 
G01 X1.0119 Y0.6791 
G01 X1.0119 Y0.6309 
G01 X1.0258 Y0.6171 
G01 X0.9366 Y0.6171 
G01 X1.0174 Y0.6979 
G00 Z0.0200 
G00 X0.9571 Y0.4024 
G01 Z-0.0100 F10.00 
G01 X0.9571 Y0.4848 
G01 X0.9569 Y0.4850 
G01 X0.9569 Y0.5231 
G01 X0.9471 Y0.5329 
G01 X1.0279 Y0.5329 
G01 X1.0279 Y0.3316 
G01 X0.9571 Y0.4024 
G00 Z0.0200 
G00 X0.7229 Y0.4499 
G01 Z-0.0100 F10.00 
G01 X0.7231 Y0.4497 
G01 X0.7231 Y0.4221 
G01 X0.7124 Y0.4221 
G01 X0.7121 Y0.4224 
G01 X0.7121 Y0.5863 
G01 X0.7518 Y0.5863 
G01 X0.7229 Y0.5574 
G01 X0.7229 Y0.5226 
G01 X0.7229 Y0.4499 
G00 Z0.0200 
G00 X0.5021 Y0.5626 
G01 Z-0.0100 F10.00 
G01 X0.5090 Y0.5694 
G01 X0.5090 Y0.5657 
G01 X0.5097 Y0.5650 
G01 X0.5090 Y0.5643 
G01 X0.5090 Y0.5157 
G01 X0.5097 Y0.5150 
G01 X0.5090 Y0.5143 
G01 X0.5090 Y0.4657 
G01 X0.5097 Y0.4650 
G01 X0.5090 Y0.4643 
G01 X0.5090 Y0.4321 
G01 X0.5076 Y0.4321 
G01 X0.5021 Y0.4266 
G01 X0.5021 Y0.5626 
G00 Z0.0200 
G00 X0.7326 Y0.0821 
G01 Z-0.0100 F10.00 
G01 X0.5066 Y0.0821 
G01 X0.5294 Y0.1049 
G01 X0.5449 Y0.1049 
G01 X0.5801 Y0.1401 
G01 X0.5801 Y0.2304 
G01 X0.6579 Y0.1526 
G01 X0.6826 Y0.1279 
G01 X0.7776 Y0.1279 
G01 X0.7784 Y0.1279 
G01 X0.7326 Y0.0821 
G00 Z0.0200 
G00 X0.7231 Y0.2121 
G01 Z-0.0100 F10.00 
G01 X0.7174 Y0.2121 
G01 X0.6316 Y0.2979 
G01 X0.6426 Y0.2979 
G01 X0.6629 Y0.2776 
G01 X0.6876 Y0.2529 
G01 X0.7229 Y0.2529 
G01 X0.7229 Y0.2452 
G01 X0.7231 Y0.2450 
G01 X0.7231 Y0.2121 
G00 Z0.0200 
G00 X0.8907 Y0.3360 
G01 Z-0.0100 F10.00 
G01 X0.8900 Y0.3353 
G01 X0.8893 Y0.3360 
G01 X0.8407 Y0.3360 
G01 X0.8400 Y0.3353 
G01 X0.8393 Y0.3360 
G01 X0.7907 Y0.3360 
G01 X0.7900 Y0.3353 
G01 X0.7893 Y0.3360 
G01 X0.7835 Y0.3360 
G01 X0.7824 Y0.3371 
G01 X0.7476 Y0.3371 
G01 X0.7224 Y0.3371 
G01 X0.7216 Y0.3379 
G01 X0.8174 Y0.3379 
G01 X0.8421 Y0.3626 
G01 X0.8571 Y0.3776 
G01 X0.8571 Y0.3940 
G01 X0.8729 Y0.3940 
G01 X0.8729 Y0.3676 
G01 X0.8976 Y0.3429 
G01 X0.9044 Y0.3360 
G01 X0.8907 Y0.3360 
G00 Z0.0200 
G00 X1.0349 Y1.0421 
G01 Z-0.0100 F10.00 
G01 X1.0266 Y1.0421 
G01 X1.0349 Y1.0504 
G01 X1.0349 Y1.0421 
G00 Z0.0200 
G00 X0.9679 Y0.1026 
G01 Z-0.0100 F10.00 
G01 X0.9926 Y0.0779 
G01 X1.0119 Y0.0586 
G01 X1.0119 Y0.0309 
G01 X1.0459 Y-0.0031 
G01 X1.0941 Y-0.0031 
G01 X1.1101 Y0.0129 
G01 X1.3774 Y0.0129 
G01 X1.4021 Y0.0376 
G01 X1.4721 Y0.1076 
G01 X1.4721 Y0.1424 
G01 X1.4721 Y0.9824 
G01 X1.4646 Y0.9899 
G01 X1.4551 Y1.0089 
G01 X1.4551 Y1.0899 
G01 X1.4371 Y1.1079 
G01 X1.4371 Y1.1124 
G01 X1.4124 Y1.1371 
G01 X1.3724 Y1.1771 
G01 X1.3376 Y1.1771 
G01 X1.0774 Y1.1771 
G01 X1.0426 Y1.1771 
G01 X0.9826 Y1.1171 
G01 X0.9290 Y1.1171 
G01 X0.9290 Y1.1890 
G01 X0.9114 Y1.2067 
G01 X0.7486 Y1.2067 
G01 X0.7310 Y1.1890 
G01 X0.7310 Y1.1171 
G01 X0.5326 Y1.1171 
G01 X0.5079 Y1.0924 
G01 X0.4879 Y1.0724 
G01 X0.4879 Y1.0522 
G01 X0.4289 Y1.0522 
G01 X0.4250 Y1.0482 
G01 X0.4210 Y1.0522 
G01 X0.4023 Y1.0522 
G01 X0.3671 Y1.0874 
G01 X0.3424 Y1.1121 
G01 X0.1674 Y1.1121 
G01 X0.1326 Y1.1121 
G01 X0.0526 Y1.0321 
G01 X0.0279 Y1.0074 
G01 X0.0279 Y0.1824 
G01 X0.0279 Y0.1476 
G01 X0.1529 Y0.0226 
G01 X0.1776 Y-0.0021 
G01 X0.7674 Y-0.0021 
G01 X0.7921 Y0.0226 
G01 X0.7921 Y0.0226 
G01 X0.8824 Y0.1129 
G01 X0.8824 Y0.1129 
G01 X0.9071 Y0.1376 
G01 X0.9071 Y0.1892 
G01 X0.9393 Y0.1892 
G01 X0.9569 Y0.2069 
G01 X0.9569 Y0.2584 
G01 X0.9571 Y0.2598 
G01 X0.9571 Y0.2801 
G01 X0.9569 Y0.2803 
G01 X0.9569 Y0.2836 
G01 X0.9679 Y0.2726 
G01 X0.9679 Y0.1026 
(File Footer)
G00 Z0.0200 
G00 Z0.5000 
M05
M02
